; G-Code generated by Simplify3D(R) Version 4.1.0
; Nov 30, 2018 at 9:37:14 AM
; Settings Summary
;   processName,Prusa i3mk2 Medium
;   applyToModels,202020_Cube
;   profileName,Prusa Research Original Prusa i3 MK2 (modified)
;   profileVersion,2018-10-08 15:17:11
;   baseProfile,
;   printMaterial,PLA
;   printQuality,Medium
;   printExtruders,
;   extruderName,Primary Extruder
;   extruderToolheadNumber,0
;   extruderDiameter,0.4
;   extruderAutoWidth,1
;   extruderWidth,0.48
;   extrusionMultiplier,1
;   extruderUseRetract,1
;   extruderRetractionDistance,1.5
;   extruderExtraRestartDistance,0
;   extruderRetractionZLift,0
;   extruderRetractionSpeed,1800
;   extruderUseCoasting,1
;   extruderCoastingDistance,0.2
;   extruderUseWipe,1
;   extruderWipeDistance,2
;   primaryExtruder,0
;   layerHeight,0.2
;   topSolidLayers,3
;   bottomSolidLayers,3
;   perimeterOutlines,2
;   printPerimetersInsideOut,1
;   startPointOption,2
;   startPointOriginX,0
;   startPointOriginY,0
;   sequentialIslands,0
;   spiralVaseMode,0
;   firstLayerHeightPercentage,150
;   firstLayerWidthPercentage,100
;   firstLayerUnderspeed,0.5
;   useRaft,1
;   raftExtruder,0
;   raftTopLayers,3
;   raftBaseLayers,2
;   raftOffset,3
;   raftSeparationDistance,0.14
;   raftTopInfill,100
;   aboveRaftSpeedMultiplier,0.3
;   useSkirt,1
;   skirtExtruder,0
;   skirtLayers,1
;   skirtOutlines,2
;   skirtOffset,0
;   usePrimePillar,0
;   primePillarExtruder,999
;   primePillarWidth,12
;   primePillarLocation,7
;   primePillarSpeedMultiplier,1
;   useOozeShield,0
;   oozeShieldExtruder,999
;   oozeShieldOffset,2
;   oozeShieldOutlines,1
;   oozeShieldSidewallShape,1
;   oozeShieldSidewallAngle,30
;   oozeShieldSpeedMultiplier,1
;   infillExtruder,0
;   internalInfillPattern,Rectilinear
;   externalInfillPattern,Rectilinear
;   infillPercentage,20
;   outlineOverlapPercentage,20
;   infillExtrusionWidthPercentage,100
;   minInfillLength,5
;   infillLayerInterval,1
;   internalInfillAngles,45,-45
;   overlapInternalInfillAngles,0
;   externalInfillAngles,45,-45
;   generateSupport,0
;   supportExtruder,0
;   supportInfillPercentage,40
;   supportExtraInflation,0
;   supportBaseLayers,0
;   denseSupportExtruder,0
;   denseSupportLayers,0
;   denseSupportInfillPercentage,70
;   supportLayerInterval,1
;   supportHorizontalPartOffset,0.3
;   supportUpperSeparationLayers,1
;   supportLowerSeparationLayers,1
;   supportType,0
;   supportGridSpacing,4
;   maxOverhangAngle,45
;   supportAngles,0
;   temperatureName,Primary Extruder,Heated Bed
;   temperatureNumber,0,0
;   temperatureSetpointCount,1,1
;   temperatureSetpointLayers,1,1
;   temperatureSetpointTemperatures,200,60
;   temperatureStabilizeAtStartup,1,1
;   temperatureHeatedBed,0,1
;   fanLayers,1,2
;   fanSpeeds,0,100
;   blipFanToFullPower,0
;   adjustSpeedForCooling,1
;   minSpeedLayerTime,15
;   minCoolingSpeedSlowdown,20
;   increaseFanForCooling,0
;   minFanLayerTime,45
;   maxCoolingFanSpeed,100
;   increaseFanForBridging,0
;   bridgingFanSpeed,100
;   use5D,1
;   relativeEdistances,0
;   allowEaxisZeroing,1
;   independentExtruderAxes,0
;   includeM10123,0
;   stickySupport,1
;   applyToolheadOffsets,0
;   gcodeXoffset,0
;   gcodeYoffset,0
;   gcodeZoffset,0
;   overrideMachineDefinition,1
;   machineTypeOverride,0
;   strokeXoverride,250
;   strokeYoverride,210
;   strokeZoverride,200
;   originOffsetXoverride,0
;   originOffsetYoverride,0
;   originOffsetZoverride,0
;   homeXdirOverride,-1
;   homeYdirOverride,-1
;   homeZdirOverride,-1
;   flipXoverride,1
;   flipYoverride,-1
;   flipZoverride,1
;   toolheadOffsets,0,0|0,0|0,0|0,0|0,0|0,0
;   overrideFirmwareConfiguration,1
;   firmwareTypeOverride,RepRap (Marlin/Repetier/Sprinter)
;   GPXconfigOverride,r2
;   baudRateOverride,250000
;   overridePrinterModels,1
;   printerModelsOverride
;   startingGcode,M115 U3.0.7 ; use the latest firmware version,G28 W ; home all axes without mesh bed leveling,G80 ; run mesh bed leveling routine,G1 Y-3.0 F1000.0 ; prepare to prime,G92 E0 ; reset extrusion distance,G1 X60.0 E9.0  F1000.0 ; priming,G1 X100.0 E12.5  F1000.0 ; priming
;   layerChangeGcode,
;   retractionGcode,
;   toolChangeGcode,
;   endingGcode,M106 S0 ; turn off cooling fan,M104 S0 ; turn off extruder,M140 S0 ; turn off bed,G1 X0 Y200 ; part removal,M84 ; disable motors
;   exportFileFormat,gcode
;   celebration,0
;   celebrationSong,Random Song
;   postProcessing,
;   defaultSpeed,2400
;   outlineUnderspeed,0.8
;   solidInfillUnderspeed,0.8
;   supportUnderspeed,0.8
;   rapidXYspeed,4800
;   rapidZspeed,1000
;   minBridgingArea,50
;   bridgingExtraInflation,0
;   bridgingExtrusionMultiplier,1
;   bridgingSpeedMultiplier,1
;   useFixedBridgingAngle,0
;   fixedBridgingAngle,0
;   applyBridgingToPerimeters,0
;   filamentDiameters,1.75|1.75|1.75|1.75|1.75|1.75
;   filamentPricesPerKg,46|46|46|46|46|46
;   filamentDensities,1.25|1.25|1.25|1.25|1.25|1.25
;   useMinPrintHeight,0
;   minPrintHeight,0
;   useMaxPrintHeight,0
;   maxPrintHeight,128
;   useDiaphragm,0
;   diaphragmLayerInterval,20
;   robustSlicing,1
;   mergeAllIntoSolid,0
;   onlyRetractWhenCrossingOutline,1
;   retractBetweenLayers,1
;   useRetractionMinTravel,0
;   retractionMinTravel,3
;   retractWhileWiping,1
;   onlyWipeOutlines,1
;   avoidCrossingOutline,0
;   maxMovementDetourFactor,3
;   toolChangeRetractionDistance,12
;   toolChangeExtraRestartDistance,-0.5
;   toolChangeRetractionSpeed,600
;   externalThinWallType,0
;   internalThinWallType,2
;   thinWallAllowedOverlapPercentage,25
;   singleExtrusionMinLength,1
;   singleExtrusionMinPrintingWidthPercentage,50
;   singleExtrusionMaxPrintingWidthPercentage,200
;   singleExtrusionEndpointExtension,0.2
;   horizontalSizeCompensation,0
G90
M82
M106 S0
M140 S60
M190 S60
M104 S200 T0
M109 S200 T0
M115 U3.0.7 ; use the latest firmware version
G28 W ; home all axes without mesh bed leveling
G80 ; run mesh bed leveling routine
G1 Y-3.0 F1000.0 ; prepare to prime
G92 E0 ; reset extrusion distance
G1 X60.0 E9.0  F1000.0 ; priming
G1 X100.0 E12.5  F1000.0 ; priming
; process Prusa i3mk2 Medium
; layer 1, Z = 0.750
T0
G92 E0.0000
G1 E-1.5000 F1800
; feature skirt
; tool H0.750 W0.480
G1 Z0.750 F1000
G1 X111.390 Y93.350 F4800
G1 E0.0000 F1800
G92 E0.0000
G1 X113.350 Y91.390 E0.4148 F1200
G1 X113.614 Y91.280 E0.4577
G1 X136.386 Y91.280 E3.8660
G1 X136.650 Y91.390 E3.9088
G1 X138.610 Y93.350 E4.3237
G1 X138.720 Y93.614 E4.3666
G1 X138.720 Y116.386 E7.7748
G1 X138.610 Y116.650 E7.8177
G1 X136.650 Y118.610 E8.2325
G1 X136.386 Y118.720 E8.2754
G1 X113.614 Y118.720 E11.6837
G1 X113.350 Y118.610 E11.7265
G1 X111.390 Y116.650 E12.1414
G1 X111.280 Y116.386 E12.1842
G1 X111.280 Y93.614 E15.5925
G1 X111.390 Y93.350 E15.6354
G92 E0.0000
G1 E-1.5000 F1800
G1 X111.797 Y93.621 F4800
G1 E0.0000 F1800
G92 E0.0000
G1 X113.621 Y91.797 E0.3863 F1200
G1 X113.710 Y91.760 E0.4006
G1 X136.290 Y91.760 E3.7802
G1 X136.379 Y91.797 E3.7945
G1 X138.203 Y93.621 E4.1808
G1 X138.240 Y93.710 E4.1951
G1 X138.240 Y116.290 E7.5748
G1 X138.203 Y116.379 E7.5890
G1 X136.379 Y118.203 E7.9753
G1 X136.290 Y118.240 E7.9896
G1 X113.710 Y118.240 E11.3693
G1 X113.621 Y118.203 E11.3836
G1 X111.797 Y116.379 E11.7698
G1 X111.760 Y116.290 E11.7841
G1 X111.760 Y93.710 E15.1638
G1 X111.797 Y93.621 E15.1781
G92 E0.0000
G1 E-1.5000 F1800
; feature raft
; tool H0.750 W0.800
G1 X112.400 Y93.923 F4800
G1 E0.0000 F1800
G92 E0.0000
G1 X113.923 Y92.400 E0.5373 F300
G1 X136.077 Y92.400 E6.0636
G1 X137.600 Y93.923 E6.6009
G1 X137.600 Y116.077 E12.1272
G1 X136.077 Y117.600 E12.6645
G1 X113.923 Y117.600 E18.1908
G1 X112.400 Y116.077 E18.7281
G1 X112.400 Y94.123 E24.2046
G1 X112.400 Y93.923 F300
G92 E0.0000
G1 E-1.5000 F1800
G1 X113.657 Y93.571 F4800
G1 E0.0000 F1800
G92 E0.0000
G1 X136.343 Y93.571 E5.6592 F300
G1 X136.960 Y94.188 E5.8768
G1 X136.960 Y95.857 E6.2931
G1 X113.040 Y95.857 E12.2600
G1 X113.040 Y98.143 E12.8301
G1 X136.960 Y98.143 E18.7970
G1 X136.960 Y100.429 E19.3672
G1 X113.040 Y100.429 E25.3340
G1 X113.040 Y102.714 E25.9042
G1 X136.960 Y102.714 E31.8711
G1 X136.960 Y105.000 E32.4413
G1 X113.040 Y105.000 E38.4081
G1 X113.040 Y107.286 E38.9783
G1 X136.960 Y107.286 E44.9452
G1 X136.960 Y109.571 E45.5153
G1 X113.040 Y109.571 E51.4822
G1 X113.040 Y111.857 E52.0524
G1 X136.960 Y111.857 E58.0193
G1 X136.960 Y114.143 E58.5894
G1 X113.040 Y114.143 E64.5563
G1 X113.040 Y115.812 E64.9726
G1 X113.657 Y116.429 E65.1902
G1 X136.143 Y116.429 E70.7995
G1 X136.343 Y116.429 F300
G92 E0.0000
G1 E-1.5000 F1800
; layer 2, Z = 1.250
M106 S255
; tool H0.500 W0.800
G1 Z1.250 F1000
G1 X136.077 Y117.600 F4800
G1 E0.0000 F1800
G92 E0.0000
G1 X113.923 Y117.600 E3.6842 F600
G1 X112.400 Y116.077 E4.0424
G1 X112.400 Y93.923 E7.7266
G1 X113.923 Y92.400 E8.0848
G1 X136.077 Y92.400 E11.7690
G1 X137.600 Y93.923 E12.1272
G1 X137.600 Y116.077 E15.8114
G1 X136.218 Y117.459 E16.1364
G1 X136.077 Y117.600 F600
G92 E0.0000
G1 E-1.5000 F1800
G1 X136.343 Y116.429 F4800
G1 E0.0000 F1800
G92 E0.0000
G1 X113.657 Y116.429 E3.7728 F600
G1 X113.040 Y115.812 E3.9178
G1 X113.040 Y114.143 E4.1954
G1 X136.960 Y114.143 E8.1733
G1 X136.960 Y111.857 E8.5534
G1 X113.040 Y111.857 E12.5313
G1 X113.040 Y109.571 E12.9114
G1 X136.960 Y109.571 E16.8894
G1 X136.960 Y107.286 E17.2695
G1 X113.040 Y107.286 E21.2474
G1 X113.040 Y105.000 E21.6275
G1 X136.960 Y105.000 E25.6054
G1 X136.960 Y102.714 E25.9855
G1 X113.040 Y102.714 E29.9634
G1 X113.040 Y100.429 E30.3436
G1 X136.960 Y100.429 E34.3215
G1 X136.960 Y98.143 E34.7016
G1 X113.040 Y98.143 E38.6795
G1 X113.040 Y95.857 E39.0596
G1 X136.960 Y95.857 E43.0375
G1 X136.960 Y94.188 E43.3151
G1 X136.343 Y93.571 E43.4601
G1 X113.857 Y93.571 E47.1997
G1 X113.657 Y93.571 F600
G92 E0.0000
G1 E-1.5000 F1800
; layer 3, Z = 1.472
; tool H0.222 W0.400
G1 Z1.472 F1000
G1 X112.200 Y94.041 F4800
G1 E0.0000 F1800
G92 E0.0000
G1 X114.041 Y92.200 E0.0962 F1800
G1 X114.607 Y92.200 E0.1171
G1 X112.200 Y94.607 E0.2429
G1 X112.200 Y95.173 E0.2638
G1 X115.173 Y92.200 E0.4192
G1 X115.738 Y92.200 E0.4401
G1 X112.200 Y95.738 E0.6250
G1 X112.200 Y96.304 E0.6459
G1 X116.304 Y92.200 E0.8604
G1 X116.870 Y92.200 E0.8813
G1 X112.200 Y96.870 E1.1254
G1 X112.200 Y97.435 E1.1463
G1 X117.435 Y92.200 E1.4199
G1 X118.001 Y92.200 E1.4408
G1 X112.200 Y98.001 E1.7440
G1 X112.200 Y98.567 E1.7649
G1 X118.567 Y92.200 E2.0976
G1 X119.132 Y92.200 E2.1185
G1 X112.200 Y99.132 E2.4808
G1 X112.200 Y99.698 E2.5018
G1 X119.698 Y92.200 E2.8936
G1 X120.264 Y92.200 E2.9145
G1 X112.200 Y100.264 E3.3360
G1 X112.200 Y100.829 E3.3569
G1 X120.829 Y92.200 E3.8079
G1 X121.395 Y92.200 E3.8288
G1 X112.200 Y101.395 E4.3094
G1 X112.200 Y101.961 E4.3303
G1 X121.961 Y92.200 E4.8404
G1 X122.527 Y92.200 E4.8613
G1 X112.200 Y102.527 E5.4010
G1 X112.200 Y103.092 E5.4219
G1 X123.092 Y92.200 E5.9912
G1 X123.658 Y92.200 E6.0121
G1 X112.200 Y103.658 E6.6109
G1 X112.200 Y104.224 E6.6318
G1 X124.224 Y92.200 E7.2602
G1 X124.789 Y92.200 E7.2811
G1 X112.200 Y104.789 E7.9391
G1 X112.200 Y105.355 E7.9600
G1 X125.355 Y92.200 E8.6475
G1 X125.921 Y92.200 E8.6684
G1 X112.200 Y105.921 E9.3855
G1 X112.200 Y106.486 E9.4064
G1 X126.486 Y92.200 E10.1530
G1 X127.052 Y92.200 E10.1739
G1 X112.200 Y107.052 E10.9501
G1 X112.200 Y107.618 E10.9711
G1 X127.618 Y92.200 E11.7768
G1 X128.183 Y92.200 E11.7977
G1 X112.200 Y108.183 E12.6331
G1 X112.200 Y108.749 E12.6540
G1 X128.749 Y92.200 E13.5189
G1 X129.315 Y92.200 E13.5398
G1 X112.200 Y109.315 E14.4343
G1 X112.200 Y109.880 E14.4552
G1 X129.880 Y92.200 E15.3792
G1 X130.446 Y92.200 E15.4001
G1 X112.200 Y110.446 E16.3537
G1 X112.200 Y111.012 E16.3746
G1 X131.012 Y92.200 E17.3578
G1 X131.577 Y92.200 E17.3787
G1 X112.200 Y111.577 E18.3914
G1 X112.200 Y112.143 E18.4123
G1 X132.143 Y92.200 E19.4546
G1 X132.709 Y92.200 E19.4755
G1 X112.200 Y112.709 E20.5474
G1 X112.200 Y113.275 E20.5683
G1 X133.275 Y92.200 E21.6697
G1 X133.840 Y92.200 E21.6906
G1 X112.200 Y113.840 E22.8216
G1 X112.200 Y114.406 E22.8425
G1 X134.406 Y92.200 E24.0031
G1 X134.972 Y92.200 E24.0240
G1 X112.200 Y114.972 E25.2141
G1 X112.200 Y115.537 E25.2350
G1 X135.537 Y92.200 E26.4547
G1 X136.103 Y92.200 E26.4756
G1 X112.200 Y116.103 E27.7248
G1 X112.200 Y116.160 E27.7269
G1 X112.454 Y116.414 E27.7402
G1 X136.414 Y92.454 E28.9925
G1 X136.697 Y92.737 E29.0072
G1 X112.737 Y116.697 E30.2595
G1 X113.020 Y116.980 E30.2742
G1 X136.980 Y93.020 E31.5265
G1 X137.263 Y93.303 E31.5412
G1 X113.303 Y117.263 E32.7935
G1 X113.586 Y117.546 E32.8082
G1 X137.546 Y93.586 E34.0605
G1 X137.800 Y93.840 E34.0738
G1 X137.800 Y93.897 E34.0759
G1 X113.897 Y117.800 E35.3251
G1 X114.463 Y117.800 E35.3460
G1 X137.800 Y94.463 E36.5657
G1 X137.800 Y95.028 E36.5866
G1 X115.028 Y117.800 E37.7767
G1 X115.594 Y117.800 E37.7976
G1 X137.800 Y95.594 E38.9582
G1 X137.800 Y96.160 E38.9791
G1 X116.160 Y117.800 E40.1101
G1 X116.726 Y117.800 E40.1310
G1 X137.800 Y96.726 E41.2324
G1 X137.800 Y97.291 E41.2533
G1 X117.291 Y117.800 E42.3251
G1 X117.857 Y117.800 E42.3460
G1 X137.800 Y97.857 E43.3883
G1 X137.800 Y98.423 E43.4092
G1 X118.423 Y117.800 E44.4220
G1 X118.988 Y117.800 E44.4429
G1 X137.800 Y98.988 E45.4260
G1 X137.800 Y99.554 E45.4469
G1 X119.554 Y117.800 E46.4005
G1 X120.120 Y117.800 E46.4214
G1 X137.800 Y100.120 E47.3455
G1 X137.800 Y100.685 E47.3664
G1 X120.685 Y117.800 E48.2609
G1 X121.251 Y117.800 E48.2818
G1 X137.800 Y101.251 E49.1467
G1 X137.800 Y101.817 E49.1676
G1 X121.817 Y117.800 E50.0029
G1 X122.382 Y117.800 E50.0238
G1 X137.800 Y102.382 E50.8296
G1 X137.800 Y102.948 E50.8505
G1 X122.948 Y117.800 E51.6267
G1 X123.514 Y117.800 E51.6476
G1 X137.800 Y103.514 E52.3943
G1 X137.800 Y104.079 E52.4152
G1 X124.079 Y117.800 E53.1322
G1 X124.645 Y117.800 E53.1532
G1 X137.800 Y104.645 E53.8407
G1 X137.800 Y105.211 E53.8616
G1 X125.211 Y117.800 E54.5195
G1 X125.776 Y117.800 E54.5404
G1 X137.800 Y105.776 E55.1688
G1 X137.800 Y106.342 E55.1897
G1 X126.342 Y117.800 E55.7886
G1 X126.908 Y117.800 E55.8095
G1 X137.800 Y106.908 E56.3787
G1 X137.800 Y107.474 E56.3996
G1 X127.474 Y117.800 E56.9393
G1 X128.039 Y117.800 E56.9602
G1 X137.800 Y108.039 E57.4704
G1 X137.800 Y108.605 E57.4913
G1 X128.605 Y117.800 E57.9718
G1 X129.171 Y117.800 E57.9927
G1 X137.800 Y109.171 E58.4437
G1 X137.800 Y109.736 E58.4646
G1 X129.736 Y117.800 E58.8861
G1 X130.302 Y117.800 E58.9070
G1 X137.800 Y110.302 E59.2988
G1 X137.800 Y110.868 E59.3198
G1 X130.868 Y117.800 E59.6821
G1 X131.433 Y117.800 E59.7030
G1 X137.800 Y111.433 E60.0357
G1 X137.800 Y111.999 E60.0566
G1 X131.999 Y117.800 E60.3598
G1 X132.565 Y117.800 E60.3807
G1 X137.800 Y112.565 E60.6543
G1 X137.800 Y113.130 E60.6752
G1 X133.130 Y117.800 E60.9193
G1 X133.696 Y117.800 E60.9402
G1 X137.800 Y113.696 E61.1547
G1 X137.800 Y114.262 E61.1756
G1 X134.262 Y117.800 E61.3605
G1 X134.827 Y117.800 E61.3814
G1 X137.800 Y114.827 E61.5367
G1 X137.800 Y115.393 E61.5576
G1 X135.393 Y117.800 E61.6834
G1 X135.959 Y117.800 E61.7043
G1 X137.659 Y116.100 E61.7932
G1 X137.800 Y115.959 F1800
G92 E0.0000
G1 E-1.5000 F1800
; layer 4, Z = 1.694
G1 Z1.694 F1000
G1 X114.041 Y117.800 F4800
G1 E0.0000 F1800
G92 E0.0000
G1 X112.200 Y115.959 E0.0962 F1800
G1 X112.200 Y115.393 E0.1171
G1 X114.607 Y117.800 E0.2429
G1 X115.173 Y117.800 E0.2638
G1 X112.200 Y114.827 E0.4192
G1 X112.200 Y114.262 E0.4401
G1 X115.738 Y117.800 E0.6250
G1 X116.304 Y117.800 E0.6459
G1 X112.200 Y113.696 E0.8604
G1 X112.200 Y113.130 E0.8813
G1 X116.870 Y117.800 E1.1254
G1 X117.435 Y117.800 E1.1463
G1 X112.200 Y112.565 E1.4199
G1 X112.200 Y111.999 E1.4408
G1 X118.001 Y117.800 E1.7440
