;FLAVOR:Marlin
;TIME:3008
;Filament used: 0.915492m
;Layer height: 0.2
;Generated with Cura_SteamEngine 3.6.0
M104 S190
M105
M109 S190
M82 ;absolute extrusion mode
G28 ;Home
G1 Z15.0 F6000 ;Move the platform down 15mm
;Prime the extruder
G92 E0
G1 F200 E5
G92 E0
G92 E0
G1 F1500 E-6.5
;LAYER_COUNT:20
;LAYER:-6
M107
G0 F7200 X-14.155 Y9.123 Z0.36
;TYPE:SUPPORT-INTERFACE
G1 F1500 E0
G1 F900 X-14.149 Y-33.65 E1.96962
G1 X-14.122 Y-34.072 E1.98909
G1 X-14.096 Y-34.293 E1.99934
G1 X-14.037 Y-34.625 E2.01487
G1 X-13.668 Y-36.378 E2.09736
G1 X-13.54 Y-36.858 E2.12024
G1 X-13.423 Y-37.185 E2.13623
G1 X-13.212 Y-37.662 E2.16025
G1 X-13.128 Y-37.831 E2.16894
G1 X-6.246 Y-50.456 E2.83106
G1 X-6.143 Y-50.628 E2.84029
G1 X-5.817 Y-51.127 E2.86774
G1 X-5.723 Y-51.259 E2.8752
G1 X-4.651 Y-52.627 E2.95523
G1 X-4.423 Y-52.884 E2.97105
G1 X-4.199 Y-53.104 E2.98551
G1 X-3.734 Y-53.495 E3.01349
G1 X-3.384 Y-53.718 E3.0326
G1 X-3.072 Y-53.884 E3.04887
G1 X-2.609 Y-54.088 E3.07217
G1 X-2.404 Y-54.168 E3.0823
G1 X-1.19 Y-54.587 E3.14144
G1 X-.686 Y-54.732 E3.16559
G1 X-.366 Y-54.799 E3.18064
G1 X-0.066 Y-54.841 E3.19459
G1 X0.173 Y-54.863 E3.20565
G1 X0.434 Y-54.872 E3.21767
G1 X0.906 Y-54.845 E3.23944
G1 X1.201 Y-54.808 E3.25313
G1 X1.52 Y-54.746 E3.2681
G1 X1.744 Y-54.692 E3.27871
G1 X1.96 Y-54.626 E3.28911
G1 X3.487 Y-54.096 E3.36354
G1 X3.788 Y-53.97 E3.37856
G1 X4.087 Y-53.82 E3.39397
G1 X4.664 Y-53.465 E3.42516
G1 X4.973 Y-53.211 E3.44358
G1 X5.221 Y-52.975 E3.45935
G1 X5.54 Y-52.625 E3.48115
G1 X5.663 Y-52.48 E3.48991
G1 X6.599 Y-51.274 E3.56021
G1 X6.724 Y-51.101 E3.57004
G1 X7.045 Y-50.61 E3.59705
G1 X7.141 Y-50.45 E3.60564
G1 X14.101 Y-37.661 E4.27611
G1 X14.255 Y-37.331 E4.29288
G1 X14.38 Y-37.003 E4.30905
G1 X14.524 Y-36.515 E4.33247
G1 X14.569 Y-36.339 E4.34084
G1 X14.956 Y-34.455 E4.42941
G1 X15.015 Y-34.04 E4.44871
G1 X15.035 Y-33.813 E4.4592
G1 X15.045 Y-33.518 E4.47279
G1 X15.045 Y9.513 E6.4543
G1 X15.087 Y10.181 E6.48512
G1 X15.216 Y10.852 E6.51658
G1 X15.429 Y11.501 E6.54803
G1 X15.721 Y12.118 E6.57947
G1 X16.089 Y12.693 E6.6109
G1 X16.519 Y13.208 E6.6418
G1 X16.818 Y13.523 E6.6618
G1 X16.982 Y13.72 E6.6736
G1 X17.168 Y13.973 E6.68806
G1 X17.31 Y14.196 E6.70023
G1 X17.476 Y14.495 E6.71598
G1 X17.581 Y14.713 E6.72713
G1 X17.713 Y15.035 E6.74315
G1 X17.874 Y15.566 E6.7687
G1 X17.93 Y15.816 E6.7805
G1 X17.98 Y16.125 E6.79491
G1 X18.006 Y16.396 E6.80745
G1 X18.016 Y16.685 E6.82076
G1 X18.006 Y17.009 E6.83569
G1 X17.981 Y17.268 E6.84767
G1 X17.933 Y17.574 E6.86194
G1 X17.871 Y17.85 E6.87496
G1 X17.798 Y18.11 E6.8874
G1 X17.456 Y19.067 E6.9342
G1 X17.472 Y19.067 E6.93493
G1 X17.452 Y19.126 E6.9378
G1 X17.322 Y19.796 E6.96923
G1 X17.277 Y20.472 E7.00043
G1 X17.302 Y21.166 E7.0324
G1 X17.304 Y27.857 E7.34051
G1 X17.346 Y28.525 E7.37133
G1 X17.475 Y29.196 E7.4028
G1 X17.689 Y29.85 E7.43449
G1 X17.829 Y30.127 E7.44878
G1 X17.812 Y30.136 E7.44966
G1 X18.226 Y30.903 E7.4898
G1 X18.352 Y31.172 E7.50348
G1 X18.456 Y31.444 E7.51689
G1 X18.542 Y31.716 E7.53002
G1 X18.615 Y32.009 E7.54393
G1 X18.662 Y32.269 E7.55609
G1 X18.7 Y32.585 E7.57075
G1 X18.715 Y32.848 E7.58288
G1 X18.712 Y33.291 E7.60328
G1 X18.697 Y33.56 E7.61569
G1 X18.702 Y34.23 E7.64654
G1 X18.793 Y34.906 E7.67795
G1 X18.969 Y35.567 E7.70945
G1 X19.227 Y36.199 E7.74088
G1 X19.563 Y36.795 E7.77239
G1 X20.033 Y37.413 E7.80814
G1 X20.125 Y37.517 E7.81453
G1 X20.29 Y37.73 E7.82694
G1 X20.454 Y37.972 E7.8404
G1 X20.599 Y38.217 E7.85351
G1 X20.734 Y38.484 E7.86729
G1 X20.852 Y38.759 E7.88107
G1 X20.943 Y39.013 E7.89349
G1 X21.03 Y39.317 E7.90805
G1 X21.087 Y39.574 E7.92018
G1 X21.128 Y39.833 E7.93225
G1 X21.156 Y40.192 E7.94883
G1 X21.158 Y40.717 E7.97301
G1 X21.148 Y40.947 E7.98361
G1 X21.078 Y41.455 E8.00722
G1 X21.023 Y41.716 E8.0195
G1 X20.943 Y41.999 E8.03305
G1 X20.84 Y42.295 E8.04748
G1 X20.733 Y42.549 E8.06017
G1 X20.599 Y42.82 E8.07409
G1 X20.46 Y43.06 E8.08686
G1 X20.304 Y43.295 E8.09985
G1 X19.693 Y44.094 E8.14617
G1 X19.352 Y44.685 E8.17759
G1 X19.088 Y45.315 E8.20904
G1 X18.905 Y45.976 E8.24063
G1 X18.796 Y46.84 E8.28073
G1 X18.79 Y46.973 E8.28686
G1 X18.758 Y47.277 E8.30093
G1 X18.714 Y47.539 E8.31317
G1 X18.646 Y47.826 E8.32675
G1 X18.561 Y48.105 E8.34018
G1 X18.453 Y48.394 E8.35439
G1 X18.34 Y48.644 E8.36702
G1 X18.218 Y48.877 E8.37913
G1 X18.04 Y49.161 E8.39457
G1 X17.722 Y49.594 E8.4193
G1 X17.561 Y49.793 E8.43109
G1 X17.185 Y50.174 E8.45574
G1 X16.99 Y50.345 E8.46768
G1 X16.758 Y50.526 E8.48123
G1 X16.51 Y50.694 E8.49503
G1 X16.268 Y50.837 E8.50797
G1 X16.007 Y50.97 E8.52146
G1 X15.728 Y51.089 E8.53543
G1 X15.458 Y51.185 E8.54862
G1 X15.193 Y51.261 E8.56132
G1 X14.891 Y51.328 E8.57556
G1 X14.612 Y51.371 E8.58856
G1 X14.331 Y51.396 E8.60155
G1 X14.062 Y51.404 E8.61394
G1 X13.718 Y51.388 E8.6298
G1 X13.245 Y51.333 E8.65173
G1 X13.044 Y51.301 E8.6611
G1 X12.352 Y51.163 E8.69359
G1 X11.687 Y51.074 E8.72449
G1 X11.004 Y51.07 E8.75594
G1 X10.326 Y51.152 E8.78739
G1 X9.664 Y51.318 E8.81882
G1 X9.029 Y51.568 E8.85024
G1 X8.696 Y51.749 E8.86769
G1 X8.684 Y51.726 E8.86889
G1 X7.931 Y52.228 E8.91056
G1 X7.679 Y52.374 E8.92397
G1 X7.321 Y52.554 E8.94243
G1 X6.035 Y53.134 E9.00739
G1 X5.701 Y53.272 E9.02403
G1 X5.498 Y53.344 E9.03395
G1 X5.147 Y53.443 E9.05074
G1 X4.859 Y53.516 E9.06442
G1 X4.859 Y53.53 E9.06507
G1 X4.42 Y53.677 E9.08638
G1 X4.227 Y53.729 E9.09559
G1 X3.692 Y53.854 E9.12089
G1 X3.502 Y53.89 E9.12979
G1 X3.121 Y53.949 E9.14755
G1 X3.121 Y53.958 E9.14796
G1 X2.89 Y53.999 E9.15876
G1 X2.141 Y54.242 E9.19502
G1 X1.975 Y54.31 E9.20328
G1 X1.712 Y54.398 E9.21606
G1 X1.423 Y54.474 E9.22982
G1 X1.131 Y54.533 E9.24353
G1 X0.863 Y54.569 E9.25599
G1 X0.351 Y54.601 E9.27961
G1 X0.104 Y54.599 E9.29098
G1 X-.267 Y54.579 E9.30809
G1 X-.555 Y54.544 E9.32145
G1 X-.845 Y54.491 E9.33503
G1 X-1.125 Y54.42 E9.34833
G1 X-2.087 Y54.114 E9.39481
G1 X-2.087 Y54.122 E9.39518
G1 X-2.712 Y54.009 E9.42443
G1 X-2.867 Y53.991 E9.43161
G1 X-3.211 Y53.93 E9.4477
G1 X-4.088 Y53.737 E9.48905
G1 X-5.041 Y53.588 E9.53347
G1 X-5.347 Y53.518 E9.54792
G1 X-5.598 Y53.445 E9.55996
G1 X-5.958 Y53.314 E9.5776
G1 X-6.56 Y53.016 E9.60853
G1 X-6.99 Y52.823 E9.63024
G1 X-7.422 Y52.653 E9.65161
G1 X-7.701 Y52.521 E9.66583
G1 X-7.967 Y52.374 E9.67982
G1 X-8.168 Y52.249 E9.69072
G1 X-8.381 Y52.097 E9.70277
G1 X-8.952 Y51.746 E9.73364
G1 X-9.574 Y51.463 E9.7651
G1 X-10.226 Y51.262 E9.79652
G1 X-10.898 Y51.145 E9.82793
G1 X-11.575 Y51.114 E9.85914
G1 X-11.96 Y51.134 E9.87689
G1 X-12.671 Y51.203 E9.90978
G1 X-13.31 Y51.289 E9.93947
G1 X-13.704 Y51.319 E9.95767
G1 X-14.009 Y51.322 E9.97172
G1 X-14.287 Y51.308 E9.98453
G1 X-14.558 Y51.277 E9.99709
G1 X-14.868 Y51.221 E10.0116
G1 X-15.13 Y51.156 E10.02403
G1 X-15.434 Y51.06 E10.03871
G1 X-15.686 Y50.963 E10.05114
G1 X-15.953 Y50.84 E10.06468
G1 X-16.207 Y50.704 E10.07795
G1 X-16.458 Y50.547 E10.09158
G1 X-16.686 Y50.384 E10.10449
G1 X-16.906 Y50.203 E10.11761
G1 X-17.137 Y49.99 E10.13207
G1 X-17.345 Y49.771 E10.14598
G1 X-17.511 Y49.578 E10.15771
G1 X-17.815 Y49.161 E10.18147
G1 X-18.03 Y48.813 E10.2003
G1 X-18.159 Y48.569 E10.21301
G1 X-18.28 Y48.304 E10.22643
G1 X-18.391 Y48.01 E10.2409
G1 X-18.467 Y47.76 E10.25293
G1 X-18.538 Y47.469 E10.26673
G1 X-18.588 Y47.186 E10.27996
G1 X-18.62 Y46.891 E10.29362
G1 X-18.642 Y46.438 E10.31451
G1 X-18.715 Y45.772 E10.34536
G1 X-18.874 Y45.108 E10.3768
G1 X-19.116 Y44.47 E10.40822
G1 X-19.438 Y43.862 E10.4399
G1 X-19.758 Y43.431 E10.46462
G1 X-19.742 Y43.415 E10.46566
G1 X-20.109 Y42.98 E10.49187
G1 X-20.229 Y42.827 E10.50082
G1 X-20.462 Y42.501 E10.51928
G1 X-20.614 Y42.256 E10.53255
G1 X-20.757 Y41.988 E10.54654
G1 X-20.867 Y41.748 E10.5587
G1 X-20.972 Y41.473 E10.57225
G1 X-21.062 Y41.186 E10.5861
G1 X-21.131 Y40.905 E10.59943
G1 X-21.184 Y40.604 E10.6135
G1 X-21.213 Y40.349 E10.62532
G1 X-21.229 Y40.022 E10.64039
G1 X-21.224 Y39.759 E10.65251
G1 X-21.201 Y39.448 E10.66687
G1 X-21.13 Y38.971 E10.68907
G1 X-21.096 Y38.818 E10.69629
G1 X-20.988 Y38.421 E10.71524
G1 X-20.895 Y38.147 E10.72856
G1 X-20.792 Y37.899 E10.74093
G1 X-20.656 Y37.622 E10.75514
G1 X-20.515 Y37.376 E10.76819
G1 X-20.381 Y37.172 E10.77943
G1 X-20.049 Y36.59 E10.81029
G1 X-19.789 Y35.959 E10.84171
G1 X-19.61 Y35.301 E10.87311
G1 X-19.519 Y34.679 E10.90206
G1 X-19.487 Y34.348 E10.91737
G1 X-19.372 Y33.759 E10.94501
G1 X-19.337 Y33.617 E10.95174
G1 X-19.169 Y33.064 E10.97836
G1 X-19.075 Y32.805 E10.99104
G1 X-18.916 Y32.446 E11.00912
G1 X-18.67 Y31.822 E11.04001
G1 X-18.502 Y31.165 E11.07124
G1 X-18.437 Y30.715 E11.09217
G1 X-18.393 Y30.278 E11.1124
G1 X-18.344 Y29.982 E11.12622
G1 X-18.272 Y29.672 E11.14087
G1 X-18.196 Y29.416 E11.15317
G1 X-18.095 Y29.144 E11.16653
G1 X-17.975 Y28.875 E11.18009
G1 X-17.844 Y28.624 E11.19313
G1 X-17.697 Y28.381 E11.20621
G1 X-17.171 Y27.617 E11.24892
G1 X-16.855 Y27.011 E11.28039
G1 X-16.618 Y26.37 E11.31186
G1 X-16.462 Y25.7 E11.34354
G1 X-16.393 Y24.752 E11.38731
G1 X-16.418 Y23.256 E11.45621
G1 X-16.477 Y22.065 E11.51112
G1 X-16.62 Y20.265 E11.59426
G1 X-16.746 Y19.133 E11.64671
G1 X-17.07 Y16.864 E11.75226
G1 X-17.102 Y16.468 E11.77055
G1 X-17.107 Y16.211 E11.78239
G1 X-17.092 Y15.899 E11.79677
G1 X-17.06 Y15.599 E11.81066
G1 X-17.013 Y15.326 E11.82342
G1 X-16.943 Y15.035 E11.8372
G1 X-16.859 Y14.764 E11.85027
G1 X-16.757 Y14.494 E11.86356
G1 X-16.621 Y14.196 E11.87864
G1 X-16.52 Y13.998 E11.88888
G1 X-16.395 Y13.784 E11.90029
G1 X-16.077 Y13.329 E11.92585
G1 X-15.894 Y13.105 E11.93917
G1 X-15.589 Y12.777 E11.95979
G1 X-15.165 Y12.259 E11.99062
G1 X-14.803 Y11.68 E12.02206
G1 X-14.517 Y11.06 E12.0535
G1 X-14.312 Y10.408 E12.08498
G1 X-14.19 Y9.737 E12.11638
G1 X-14.155 Y9.123 E12.1447
G0 F7200 X-14.4 Y10.687
G1 F900 X-14.4 Y51.295 E14.01463
G0 F7200 X-12.8 Y51.221
G1 F900 X-12.8 Y-38.433 E18.14304
G0 F7200 X-11.2 Y-41.368
G1 F900 X-11.2 Y51.131 E22.40245
G0 F7200 X-9.6 Y51.454
G1 F900 X-9.6 Y-44.304 E26.81194
G0 F7200 X-8 Y-47.239
G1 F900 X-8 Y52.353 E31.39798
G0 F7200 X-6.4 Y53.095
G1 F900 X-6.4 Y-50.174 E36.15333
G0 F7200 X-4.8 Y-52.437
G1 F900 X-4.8 Y53.625 E41.0373
G0 F7200 X-3.2 Y53.931
G1 F900 X-3.2 Y-53.816 E45.99886
G0 F7200 X-1.6 Y-54.446
G1 F900 X-1.6 Y54.268 E51.00495
G0 F7200 X0.00 Y54.593
G1 F900 X0.00 Y-54.848 E56.04452
G0 F7200 X1.6 Y-54.726
G1 F900 X1.6 Y54.428 E61.07087
G0 F7200 X3.2 Y53.937
G1 F900 X3.2 Y-54.195 E66.05016
G0 F7200 X4.8 Y-53.353
G1 F900 X4.8 Y53.55 E70.97285
G0 F7200 X6.4 Y52.97
G1 F900 X6.4 Y-51.53 E75.78489
G0 F7200 X8 Y-48.871
G1 F900 X8 Y52.182 E80.43821
G0 F7200 X9.6 Y51.344
G1 F900 X9.6 Y-45.931 E84.91755
G0 F7200 X11.2 Y-42.991
G1 F900 X11.2 Y51.071 E89.24894
G0 F7200 X12.8 Y51.252
G1 F900 X12.8 Y-40.051 E93.45328
G0 F7200 X14.4 Y-36.935
G1 F900 X14.4 Y51.39 E97.52049
G0 F7200 X16 Y50.973
G1 F900 X16 Y12.554 E99.28962
G0 F7200 X17.6 Y14.76
G1 F900 X17.6 Y18.665 E99.46944
G0 F7200 X17.6 Y29.579
G1 F900 X17.6 Y49.745 E100.39805
G0 F7200 X19.2 Y45.048
G1 F900 X19.2 Y36.133 E100.80857
G0 F7200 X20.8 Y38.638
G1 F900 X20.8 Y42.39 E100.98134
G0 F7200 X-16 Y50.814
G1 F900 X-16 Y13.234 E102.71183
G0 F7200 X-16.92 Y25.633
G0 X-17.6 Y28.24
G1 F900 X-17.6 Y49.455 E103.68875
G0 F7200 X-19.2 Y44.311
G1 F900 X-19.2 Y33.166 E104.20195
G0 F7200 X-20.8 Y37.918
G1 F900 X-20.8 Y41.894 E104.38504
G0 F7200 X-19.462 Y44.914
G0 X-18.35 Y48.117
;TIME_ELAPSED:161.274193
;LAYER:-5
G0 X-18.35 Y48.117 Z0.66
;TYPE:SUPPORT
G1 F900 X-15.397 Y51.07 E104.5453
G1 X-15.434 Y51.059 E104.54678
G1 X-15.685 Y50.961 E104.55712
G1 X-15.953 Y50.838 E104.56843
G1 X-16.206 Y50.703 E104.57944
G1 X-16.457 Y50.546 E104.5908
G1 X-16.685 Y50.383 E104.60155
G1 X-16.906 Y50.202 E104.61251
G1 X-17.136 Y49.988 E104.62457
G1 X-17.345 Y49.77 E104.63616
G1 X-17.511 Y49.577 E104.64593
G1 X-17.815 Y49.16 E104.66573
G1 X-18.03 Y48.812 E104.68143
G1 X-18.158 Y48.568 E104.692
G1 X-18.279 Y48.303 E104.70318
G0 F7200 X-15.397 Y51.07
G1 F900 X-15.129 Y51.155 E104.71397
G1 X-14.867 Y51.219 E104.72432
G1 X-14.557 Y51.276 E104.73641
G1 X-14.287 Y51.306 E104.74684
G1 X-14.008 Y51.321 E104.75756
G1 X-13.735 Y51.318 E104.76804
G1 X-18.645 Y46.408 E105.03449
G1 X-18.714 Y45.771 E105.05908
G1 X-18.874 Y45.107 E105.08529
G1 X-19.084 Y44.555 E105.10795
G1 X-12.458 Y51.181 E105.46754
G1 X-11.96 Y51.133 E105.48673
G1 X-11.574 Y51.113 E105.50157
G1 X-11.09 Y51.135 E105.52016
G1 X-21.068 Y41.156 E106.06167
G1 X-21.131 Y40.904 E106.07164
G1 X-21.183 Y40.603 E106.08336
G1 X-21.212 Y40.348 E106.09321
G1 X-21.228 Y40.02 E106.10581
G1 X-21.223 Y39.758 E106.11587
G1 X-21.212 Y39.598 E106.12202
G1 X-9.161 Y51.649 E106.77601
G1 X-8.951 Y51.744 E106.78486
G1 X-8.381 Y52.096 E106.81056
G1 X-8.168 Y52.248 E106.82061
G1 X-7.966 Y52.373 E106.82972
G1 X-7.701 Y52.52 E106.84135
G1 X-7.421 Y52.652 E106.85323
G1 X-6.99 Y52.822 E106.87101
G1 X-6.559 Y53.015 E106.88913
G1 X-6.207 Y53.189 E106.9042
G1 X-20.985 Y38.411 E107.70617
G1 X-20.894 Y38.146 E107.71693
G1 X-20.791 Y37.898 E107.72723
G1 X-20.656 Y37.62 E107.73909
G1 X-20.549 Y37.433 E107.74736
G1 X-4.275 Y53.706 E108.63049
G1 X-4.087 Y53.736 E108.6378
G1 X-3.21 Y53.928 E108.67225
G1 X-2.866 Y53.99 E108.68566
G1 X-2.711 Y54.008 E108.69165
G1 X-2.527 Y54.041 E108.69882
G1 X-20.028 Y36.539 E109.6486
G1 X-19.789 Y35.957 E109.67275
G1 X-19.662 Y35.491 E109.69128
G1 X-.624 Y54.529 E110.72444
G1 X-.555 Y54.542 E110.72714
G1 X-.266 Y54.578 E110.73831
G1 X0.103 Y54.597 E110.75249
G1 X0.35 Y54.599 E110.76197
G1 X0.829 Y54.569 E110.78039
G1 X-19.472 Y34.267 E111.88212
G1 X-19.371 Y33.758 E111.90203
G1 X-19.337 Y33.616 E111.90763
G1 X-19.19 Y33.135 E111.92693
G1 X1.98 Y54.306 E113.07582
G1 X2.141 Y54.24 E113.0825
G1 X2.889 Y53.998 E113.11267
G1 X3.056 Y53.968 E113.11918
G1 X-18.789 Y32.122 E114.3047
G1 X-18.67 Y31.821 E114.31712
G1 X-18.501 Y31.164 E114.34315
G1 X-18.48 Y31.016 E114.34888
G1 X4.229 Y53.727 E115.58132
G1 X4.42 Y53.675 E115.58892
G1 X4.859 Y53.529 E115.60667
G1 X4.859 Y53.515 E115.60721
G1 X5.147 Y53.442 E115.61861
G1 X5.311 Y53.395 E115.62515
G1 X-18.298 Y29.784 E116.90643
G1 X-18.271 Y29.671 E116.91089
G1 X-18.195 Y29.414 E116.92117
G1 X-18.095 Y29.143 E116.93226
G1 X-17.974 Y28.873 E116.94361
G1 X-17.913 Y28.755 E116.94871
G1 X6.33 Y52.999 E118.26436
G1 X7.305 Y52.559 E118.30541
G1 X-17.362 Y27.892 E119.64405
G1 X-17.17 Y27.616 E119.65695
G1 X-16.854 Y27.01 E119.68318
G1 X-16.848 Y26.992 E119.6839
G1 X8.203 Y52.044 E121.04341
G1 X8.683 Y51.725 E121.06553
G1 X8.695 Y51.748 E121.06652
G1 X9.029 Y51.567 E121.0811
G1 X9.108 Y51.535 E121.08437
G1 X-16.512 Y25.914 E122.47475
G1 X-16.462 Y25.699 E122.48322
G1 X-16.392 Y24.75 E122.51974
G1 X-16.395 Y24.616 E122.52488
G1 X10.175 Y51.188 E123.96685
G1 X10.325 Y51.151 E123.97277
G1 X11.003 Y51.068 E123.99899
G1 X11.473 Y51.071 E124.01702
G1 X-16.421 Y23.176 E125.53081
G1 X-16.477 Y22.064 E125.57354
G1 X-16.508 Y21.675 E125.58851
G1 X13.129 Y51.313 E127.19689
G1 X13.244 Y51.332 E127.20136
G1 X13.717 Y51.386 E127.21963
G1 X14.062 Y51.403 E127.23289
G1 X14.331 Y51.395 E127.24321
G1 X14.601 Y51.371 E127.25362
G1 X-16.634 Y20.134 E128.94874
G1 X-16.746 Y19.132 E128.98743
G1 X-16.833 Y18.521 E129.01111
G1 X15.731 Y51.086 E130.77834
G1 X16.006 Y50.968 E130.78982
G1 X16.268 Y50.836 E130.80108
G1 X16.51 Y50.693 E130.81186
G1 X16.653 Y50.594 E130.81854
G1 X-17.068 Y16.872 E132.64855
G1 X-17.101 Y16.467 E132.66414
G1 X-17.106 Y16.211 E132.67397
G1 X-17.091 Y15.899 E132.68595
G1 X-17.059 Y15.598 E132.69757
G1 X-17.04 Y15.486 E132.70193
G1 X17.414 Y49.941 E134.57172
G1 X17.56 Y49.792 E134.57972
G1 X17.722 Y49.592 E134.5896
G1 X18.043 Y49.155 E134.61041
G1 X-16.713 Y14.398 E136.49659
G1 X-16.619 Y14.195 E136.50517
