;FLAVOR:Marlin
;TIME:469
;Filament used: 0.149311m
;Layer height: 0.2
;Generated with Cura_SteamEngine 3.5.0
M104 S190
M105
M109 S190
M82 ;absolute extrusion mode
G28 ;Home
G1 Z15.0 F6000 ;Move the platform down 15mm
;Prime the extruder
G92 E0
G1 F200 E5
G92 E0
G92 E0
G1 F1500 E-6.5
;LAYER_COUNT:50
;LAYER:-6
M107
G0 F7200 X-9.6 Y4.871 Z0.36
;TYPE:SUPPORT-INTERFACE
G1 F1500 E0
G1 F900 X-9.596 Y-5.05 E0.45684
G1 X-9.572 Y-5.427 E0.47424
G1 X-9.535 Y-5.725 E0.48807
G1 X-9.48 Y-6.009 E0.50139
G1 X-9.404 Y-6.3 E0.51524
G1 X-9.32 Y-6.558 E0.52773
G1 X-9.209 Y-6.837 E0.54156
G1 X-9.087 Y-7.095 E0.5547
G1 X-8.941 Y-7.358 E0.56855
G1 X-8.792 Y-7.592 E0.58133
G1 X-8.61 Y-7.839 E0.59545
G1 X-8.441 Y-8.04 E0.60755
G1 X-8.221 Y-8.273 E0.6223
G1 X-8.019 Y-8.46 E0.63498
G1 X-7.789 Y-8.648 E0.64866
G1 X-7.561 Y-8.812 E0.66159
G1 X-7.302 Y-8.974 E0.67566
G1 X-7.063 Y-9.102 E0.68814
G1 X-6.788 Y-9.229 E0.70209
G1 X-6.527 Y-9.331 E0.715
G1 X-6.224 Y-9.426 E0.72962
G1 X-6.003 Y-9.48 E0.74009
G1 X-5.647 Y-9.54 E0.75672
G1 X-5.093 Y-9.59 E0.78233
G1 X-4.871 Y-9.6 E0.79257
G1 X5.05 Y-9.596 E1.24941
G1 X5.427 Y-9.572 E1.26681
G1 X5.725 Y-9.535 E1.28063
G1 X6.009 Y-9.48 E1.29395
G1 X6.3 Y-9.404 E1.3078
G1 X6.558 Y-9.32 E1.3203
G1 X6.837 Y-9.209 E1.33412
G1 X7.095 Y-9.087 E1.34727
G1 X7.353 Y-8.944 E1.36085
G1 X7.592 Y-8.792 E1.37389
G1 X7.839 Y-8.61 E1.38802
G1 X8.04 Y-8.441 E1.40011
G1 X8.273 Y-8.221 E1.41487
G1 X8.46 Y-8.019 E1.42754
G1 X8.648 Y-7.789 E1.44122
G1 X8.812 Y-7.561 E1.45416
G1 X8.974 Y-7.302 E1.46822
G1 X9.102 Y-7.063 E1.48071
G1 X9.229 Y-6.788 E1.49466
G1 X9.331 Y-6.527 E1.50756
G1 X9.426 Y-6.224 E1.52218
G1 X9.48 Y-6.003 E1.53266
G1 X9.54 Y-5.647 E1.54928
G1 X9.59 Y-5.093 E1.5749
G1 X9.6 Y-4.871 E1.58513
G1 X9.596 Y5.05 E2.04198
G1 X9.572 Y5.427 E2.05937
G1 X9.535 Y5.725 E2.0732
G1 X9.48 Y6.009 E2.08652
G1 X9.404 Y6.3 E2.10037
G1 X9.32 Y6.558 E2.11286
G1 X9.209 Y6.837 E2.12669
G1 X9.087 Y7.095 E2.13983
G1 X8.944 Y7.353 E2.15342
G1 X8.792 Y7.592 E2.16646
G1 X8.619 Y7.827 E2.1799
G1 X8.438 Y8.044 E2.19291
G1 X8.224 Y8.27 E2.20724
G1 X8.019 Y8.46 E2.22011
G1 X7.789 Y8.648 E2.23379
G1 X7.561 Y8.812 E2.24672
G1 X7.302 Y8.974 E2.26079
G1 X7.063 Y9.102 E2.27327
G1 X6.788 Y9.229 E2.28722
G1 X6.527 Y9.331 E2.30013
G1 X6.224 Y9.426 E2.31475
G1 X6.003 Y9.48 E2.32523
G1 X5.647 Y9.54 E2.34185
G1 X5.093 Y9.59 E2.36746
G1 X4.871 Y9.6 E2.3777
G1 X-4.924 Y9.6 E2.82874
G1 X-5.427 Y9.572 E2.85194
G1 X-5.725 Y9.535 E2.86577
G1 X-6.009 Y9.48 E2.87909
G1 X-6.3 Y9.404 E2.89294
G1 X-6.56 Y9.319 E2.90553
G1 X-6.837 Y9.209 E2.91926
G1 X-7.096 Y9.086 E2.93246
G1 X-7.353 Y8.944 E2.94598
G1 X-7.592 Y8.792 E2.95902
G1 X-7.839 Y8.61 E2.97315
G1 X-8.04 Y8.441 E2.98524
G1 X-8.273 Y8.221 E3
G1 X-8.46 Y8.019 E3.01268
G1 X-8.652 Y7.784 E3.02665
G1 X-8.812 Y7.561 E3.03929
G1 X-8.974 Y7.302 E3.05335
G1 X-9.102 Y7.063 E3.06584
G1 X-9.229 Y6.788 E3.07979
G1 X-9.331 Y6.527 E3.09269
G1 X-9.426 Y6.224 E3.10731
G1 X-9.482 Y5.995 E3.11817
G1 X-9.54 Y5.647 E3.13442
G1 X-9.59 Y5.093 E3.16003
G1 X-9.6 Y4.871 E3.17026
G0 F7200 X-8 Y8.474
G1 F900 X-8 Y-8.476 E3.95078
G0 F7200 X-6.4 Y-9.371
G1 F900 X-6.4 Y9.371 E4.81382
G0 F7200 X-4.8 Y9.6
G1 F900 X-4.8 Y-9.599 E5.6979
G0 F7200 X-3.2 Y-9.599
G1 F900 X-3.2 Y9.6 E6.58198
G0 F7200 X-1.6 Y9.6
G1 F900 X-1.6 Y-9.598 E7.46601
G0 F7200 X0.00 Y-9.598
G1 F900 X0.00 Y9.6 E8.35005
G0 F7200 X1.6 Y9.6
G1 F900 X1.6 Y-9.597 E9.23403
G0 F7200 X3.2 Y-9.596
G1 F900 X3.2 Y9.6 E10.11798
G0 F7200 X4.8 Y9.6
G1 F900 X4.8 Y-9.596 E11.00192
G0 F7200 X6.4 Y-9.371
G1 F900 X6.4 Y9.371 E11.86495
G0 F7200 X8 Y8.476
G1 F900 X8 Y-8.474 E12.64547
G0 F7200 X-6.101 Y9.454
;TIME_ELAPSED:27.241513
;LAYER:-5
G0 X-6.101 Y9.454 Z0.66
;TYPE:SUPPORT
G1 F900 X-6.008 Y9.479 E12.64917
G1 X-5.724 Y9.534 E12.66027
G1 X-5.427 Y9.57 E12.67175
G1 X-4.924 Y9.599 E12.69108
G1 X-4.543 Y9.598 E12.7057
G1 X-9.598 Y4.543 E12.98003
G1 X-9.598 Y3.128 E13.03433
G1 X-3.128 Y9.598 E13.38544
G1 X-1.714 Y9.598 E13.4397
G1 X-9.598 Y1.715 E13.86753
G1 X-9.597 Y0.301 E13.92179
G1 X-.3 Y9.598 E14.42632
G1 X1.113 Y9.598 E14.48054
G1 X-9.596 Y-1.111 E15.0617
G1 X-9.596 Y-2.525 E15.11596
G1 X2.527 Y9.598 E15.77386
G1 X3.942 Y9.598 E15.82816
G1 X-9.596 Y-3.939 E16.56282
G1 X-9.595 Y-5.05 E16.60545
G1 X-9.577 Y-5.334 E16.61637
G1 X5.325 Y9.567 E17.42505
G1 X5.646 Y9.538 E17.43742
G1 X6.003 Y9.479 E17.4513
G1 X6.223 Y9.425 E17.46
G1 X6.507 Y9.335 E17.47143
G1 X-9.336 Y-6.508 E18.3312
G1 X-9.319 Y-6.557 E18.33319
G1 X-9.208 Y-6.837 E18.34475
G1 X-9.086 Y-7.095 E18.3557
G1 X-8.94 Y-7.358 E18.36724
G1 X-8.875 Y-7.461 E18.37192
G1 X7.459 Y8.874 E19.25836
G1 X7.561 Y8.811 E19.26297
G1 X7.788 Y8.647 E19.27371
G1 X8.019 Y8.459 E19.28514
G1 X8.224 Y8.269 E19.29587
G1 X8.246 Y8.246 E19.29709
G1 X-8.246 Y-8.246 E20.19208
G1 X-8.221 Y-8.272 E20.19347
G1 X-8.019 Y-8.459 E20.20403
G1 X-7.788 Y-8.647 E20.21546
G1 X-7.561 Y-8.811 E20.2262
G1 X-7.459 Y-8.874 E20.2308
G1 X8.874 Y7.46 E21.1172
G1 X8.943 Y7.352 E21.12211
G1 X9.086 Y7.095 E21.1334
G1 X9.208 Y6.837 E21.14435
G1 X9.319 Y6.557 E21.15591
G1 X9.336 Y6.508 E21.1579
G1 X-6.507 Y-9.335 E22.01767
G1 X-6.223 Y-9.425 E22.02911
G1 X-6.003 Y-9.479 E22.0378
G1 X-5.646 Y-9.538 E22.05168
G1 X-5.325 Y-9.567 E22.06405
G1 X9.577 Y5.334 E22.87273
G1 X9.595 Y5.05 E22.88365
G1 X9.596 Y3.939 E22.92629
G1 X-3.941 Y-9.598 E23.66092
G1 X-2.526 Y-9.597 E23.71522
G1 X9.596 Y2.525 E24.37306
G1 X9.596 Y1.111 E24.42732
G1 X-1.112 Y-9.597 E25.00842
G1 X0.302 Y-9.596 E25.06268
G1 X9.597 Y-.301 E25.56711
G1 X9.598 Y-1.715 E25.62137
G1 X1.717 Y-9.596 E26.04906
G1 X3.132 Y-9.595 E26.10335
G1 X9.598 Y-3.128 E26.45428
G1 X9.598 Y-4.543 E26.50858
G1 X4.546 Y-9.595 E26.78274
G1 X5.05 Y-9.595 E26.80208
G1 X5.427 Y-9.57 E26.81658
G1 X5.724 Y-9.534 E26.82806
G1 X6.008 Y-9.479 E26.83916
G1 X6.101 Y-9.454 E26.84286
G1 X9.456 Y-6.1 E27.0249
G0 F7200 X9.425 Y-6.223
G1 F900 X9.33 Y-6.527 E27.03712
G1 X9.228 Y-6.787 E27.04784
G1 X9.101 Y-7.063 E27.0595
G1 X8.973 Y-7.301 E27.06987
G1 X8.811 Y-7.561 E27.08163
G1 X8.647 Y-7.788 E27.09237
G1 X8.459 Y-8.019 E27.1038
G1 X8.272 Y-8.221 E27.11436
G1 X8.039 Y-8.44 E27.12663
G1 X7.838 Y-8.609 E27.13671
G1 X7.592 Y-8.791 E27.14845
G1 X7.352 Y-8.943 E27.15936
G1 X7.095 Y-9.086 E27.17064
G1 X6.837 Y-9.208 E27.18159
G1 X6.557 Y-9.319 E27.19315
G1 X6.3 Y-9.403 E27.20353
G1 X6.101 Y-9.454 E27.21141
G0 F7200 X-9.455 Y6.1
G1 F900 X-6.101 Y9.454 E27.39343
G1 X-6.3 Y9.403 E27.40131
G1 X-6.56 Y9.318 E27.41181
G1 X-6.837 Y9.208 E27.42324
G1 X-7.095 Y9.085 E27.43421
G1 X-7.352 Y8.943 E27.44548
G1 X-7.592 Y8.791 E27.45638
G1 X-7.838 Y8.609 E27.46812
G1 X-8.039 Y8.44 E27.4782
G1 X-8.272 Y8.221 E27.49047
G1 X-8.459 Y8.019 E27.50103
G1 X-8.651 Y7.784 E27.51268
G1 X-8.811 Y7.561 E27.52321
G1 X-8.973 Y7.301 E27.53496
G1 X-9.101 Y7.063 E27.54533
G1 X-9.228 Y6.787 E27.55699
G1 X-9.33 Y6.527 E27.56771
G1 X-9.425 Y6.223 E27.57993
G0 F7200 X6.051 Y-9.676
;TIME_ELAPSED:53.722965
;LAYER:-4
G0 X6.051 Y-9.676 Z0.86
;TYPE:SUPPORT-INTERFACE
G1 F1200 X5.756 Y-9.733 E27.58378
G1 X5.453 Y-9.77 E27.58768
G1 X5.049 Y-9.796 E27.59286
G1 X-4.879 Y-9.8 E27.71985
G1 X-5.101 Y-9.79 E27.72269
G1 X-5.67 Y-9.739 E27.73
G1 X-6.04 Y-9.676 E27.7348
G1 X-6.283 Y-9.617 E27.738
G1 X-6.337 Y-9.6 E27.73872
G1 X6.343 Y-9.6 E27.90091
G1 X6.631 Y-9.506 E27.90479
G1 X6.901 Y-9.399 E27.9085
G1 X7.202 Y-9.256 E27.91277
G1 X7.303 Y-9.2 E27.91424
G1 X-7.302 Y-9.2 E28.10106
G1 X-7.393 Y-9.151 E28.10238
G1 X-7.677 Y-8.974 E28.10666
G1 X-7.908 Y-8.808 E28.1103
G1 X-7.917 Y-8.8 E28.11045
G1 X7.917 Y-8.8 E28.31299
G1 X7.964 Y-8.765 E28.31374
G1 X8.185 Y-8.579 E28.31743
G1 X8.376 Y-8.4 E28.32078
G1 X-8.376 Y-8.4 E28.53506
G1 X-8.579 Y-8.185 E28.53884
G1 X-8.734 Y-8 E28.54193
G1 X8.734 Y-7.999 E28.76537
G1 X8.808 Y-7.908 E28.76687
G1 X8.974 Y-7.677 E28.77051
G1 X9.023 Y-7.599 E28.77168
G1 X-9.022 Y-7.6 E29.0025
G1 X-9.122 Y-7.444 E29.00487
G1 X-9.256 Y-7.2 E29.00843
G1 X9.256 Y-7.199 E29.24522
G1 X9.284 Y-7.146 E29.24599
G1 X9.418 Y-6.857 E29.25006
G1 X9.441 Y-6.799 E29.25086
G1 X-9.438 Y-6.8 E29.49235
G1 X-9.506 Y-6.631 E29.49468
G1 X-9.581 Y-6.4 E29.49778
G1 X9.581 Y-6.399 E29.74289
G1 X9.617 Y-6.283 E29.74444
G1 X9.678 Y-6.034 E29.74772
G1 X9.684 Y-5.999 E29.74817
G1 X-9.685 Y-6 E29.99593
G1 X-9.734 Y-5.75 E29.99918
G1 X-9.752 Y-5.6 E30.00112
G1 X9.746 Y-5.599 E30.25052
G1 X9.782 Y-5.199 E30.25566
G1 X-9.786 Y-5.2 E30.50595
G1 X-9.796 Y-5.049 E30.50789
G1 X-9.796 Y-4.8 E30.51108
G1 X9.799 Y-4.799 E30.76172
G1 X9.799 Y-4.399 E30.76683
G1 X-9.796 Y-4.4 E31.01748
G1 X-9.796 Y-4 E31.02259
G1 X9.799 Y-3.999 E31.27324
G1 X9.799 Y-3.599 E31.27835
G1 X-9.796 Y-3.6 E31.529
G1 X-9.796 Y-3.2 E31.53411
G1 X9.799 Y-3.199 E31.78476
G1 X9.799 Y-2.799 E31.78987
G1 X-9.796 Y-2.8 E32.04052
G1 X-9.797 Y-2.4 E32.04563
G1 X9.798 Y-2.399 E32.29628
G1 X9.798 Y-1.999 E32.30139
G1 X-9.797 Y-2 E32.55204
G1 X-9.797 Y-1.6 E32.55715
G1 X9.798 Y-1.599 E32.8078
G1 X9.798 Y-1.199 E32.81291
G1 X-9.797 Y-1.2 E33.06355
G1 X-9.797 Y-.8 E33.06867
G1 X9.798 Y-.799 E33.31931
G1 X9.798 Y-.399 E33.32443
G1 X-9.797 Y-.4 E33.57507
G1 X-9.798 Y0.00 E33.58019
G1 X9.798 Y0.00 E33.83085
G1 X9.797 Y0.4 E33.83596
G1 X-9.798 Y0.399 E34.08661
G1 X-9.798 Y0.799 E34.09172
G1 X9.797 Y0.8 E34.34237
G1 X9.797 Y1.2 E34.34748
G1 X-9.798 Y1.199 E34.59813
G1 X-9.798 Y1.599 E34.60324
G1 X9.797 Y1.6 E34.85388
G1 X9.797 Y2 E34.859
G1 X-9.798 Y1.999 E35.10964
G1 X-9.798 Y2.399 E35.11476
G1 X9.797 Y2.4 E35.3654
G1 X9.796 Y2.8 E35.37052
G1 X-9.799 Y2.799 E35.62116
G1 X-9.799 Y3.199 E35.62628
G1 X9.796 Y3.2 E35.87692
G1 X9.796 Y3.6 E35.88204
G1 X-9.799 Y3.599 E36.13268
G1 X-9.799 Y3.999 E36.1378
G1 X9.796 Y4 E36.38844
G1 X9.796 Y4.4 E36.39356
G1 X-9.799 Y4.399 E36.6442
G1 X-9.799 Y4.799 E36.64932
G1 X9.796 Y4.8 E36.89996
G1 X9.796 Y5.049 E36.90315
G1 X9.786 Y5.2 E36.90508
G1 X-9.782 Y5.199 E37.15538
G1 X-9.746 Y5.599 E37.16052
G1 X9.752 Y5.6 E37.40992
G1 X9.734 Y5.75 E37.41185
G1 X9.686 Y6 E37.41511
G1 X-9.684 Y5.999 E37.66287
G1 X-9.678 Y6.034 E37.66333
G1 X-9.617 Y6.283 E37.66661
G1 X-9.581 Y6.399 E37.66816
G1 X9.581 Y6.4 E37.91327
G1 X9.506 Y6.631 E37.91637
G1 X9.438 Y6.8 E37.9187
G1 X-9.441 Y6.799 E38.16019
G1 X-9.418 Y6.857 E38.16098
G1 X-9.284 Y7.146 E38.16506
G1 X-9.256 Y7.199 E38.16583
G1 X9.257 Y7.2 E38.40263
G1 X9.122 Y7.444 E38.4062
G1 X9.022 Y7.6 E38.40857
G1 X-9.023 Y7.599 E38.63938
G1 X-8.974 Y7.677 E38.64056
G1 X-8.808 Y7.908 E38.6442
G1 X-8.734 Y7.999 E38.6457
G1 X8.735 Y8 E38.86915
G1 X8.592 Y8.172 E38.87201
G1 X8.376 Y8.4 E38.87603
G1 X-8.376 Y8.4 E39.09031
G1 X-8.185 Y8.579 E39.09365
G1 X-7.964 Y8.765 E39.09735
G1 X-7.917 Y8.8 E39.0981
G1 X7.917 Y8.8 E39.30063
G1 X7.908 Y8.808 E39.30079
G1 X7.677 Y8.974 E39.30443
G1 X7.394 Y9.15 E39.30869
G1 X7.301 Y9.2 E39.31004
G1 X-7.303 Y9.2 E39.49684
G1 X-7.202 Y9.256 E39.49832
G1 X-6.901 Y9.399 E39.50258
G1 X-6.632 Y9.506 E39.50629
G1 X-6.341 Y9.6 E39.5102
G1 X6.337 Y9.6 E39.67236
G1 X6.284 Y9.617 E39.67308
G1 X6.04 Y9.676 E39.67629
G1 X5.67 Y9.739 E39.68109
G1 X5.101 Y9.79 E39.68839
G1 X4.879 Y9.8 E39.69124
G1 X-5.049 Y9.796 E39.81823
G1 X-5.453 Y9.77 E39.82341
G1 X-5.756 Y9.733 E39.82731
G1 X-6.051 Y9.676 E39.83115
G0 F7200 X9.677 Y6.049
;TIME_ELAPSED:101.893952
;LAYER:-3
G0 X9.677 Y6.049 Z1.06
;TYPE:SUPPORT-INTERFACE
G1 F1200 X9.734 Y5.75 E39.83505
G1 X9.77 Y5.453 E39.83887
G1 X9.796 Y5.049 E39.84405
G1 X9.8 Y-4.888 E39.97116
G1 X9.79 Y-5.101 E39.97389
G1 X9.739 Y-5.67 E39.98119
G1 X9.678 Y-6.034 E39.98591
G1 X9.617 Y-6.283 E39.98919
G1 X9.6 Y-6.337 E39.98992
G1 X9.6 Y6.343 E40.15211
G1 X9.506 Y6.631 E40.15598
G1 X9.4 Y6.898 E40.15966
G1 X9.257 Y7.201 E40.16394
G1 X9.2 Y7.304 E40.16545
G1 X9.2 Y-7.302 E40.35228
G1 X9.151 Y-7.393 E40.3536
G1 X8.973 Y-7.677 E40.35789
G1 X8.807 Y-7.908 E40.36153
G1 X8.8 Y-7.916 E40.36166
G1 X8.799 Y7.917 E40.56419
G1 X8.764 Y7.964 E40.56493
G1 X8.591 Y8.172 E40.5684
G1 X8.399 Y8.375 E40.57197
G1 X8.4 Y-8.375 E40.78622
G1 X8.185 Y-8.578 E40.79
G1 X8 Y-8.733 E40.79309
G1 X7.999 Y8.733 E41.0165
G1 X7.908 Y8.807 E41.018
G1 X7.677 Y8.973 E41.02164
G1 X7.599 Y9.022 E41.02282
G1 X7.6 Y-9.021 E41.25361
G1 X7.45 Y-9.117 E41.25589
G1 X7.2 Y-9.256 E41.25955
G1 X7.199 Y9.256 E41.49634
G1 X7.146 Y9.284 E41.4971
G1 X6.862 Y9.416 E41.50111
G1 X6.799 Y9.441 E41.50198
G1 X6.8 Y-9.439 E41.74347
G1 X6.631 Y-9.506 E41.7458
G1 X6.4 Y-9.581 E41.74891
G1 X6.399 Y9.581 E41.99401
G1 X6.284 Y9.617 E41.99555
G1 X6.04 Y9.676 E41.99876
G1 X5.999 Y9.683 E41.9993
G1 X6 Y-9.685 E42.24703
G1 X5.756 Y-9.733 E42.25022
G1 X5.6 Y-9.752 E42.25223
G1 X5.599 Y9.746 E42.50163
G1 X5.199 Y9.782 E42.50677
G1 X5.2 Y-9.786 E42.75706
G1 X5.049 Y-9.796 E42.759
G1 X4.8 Y-9.796 E42.76218
G1 X4.799 Y9.799 E43.01283
G1 X4.399 Y9.799 E43.01794
G1 X4.4 Y-9.796 E43.26859
G1 X4 Y-9.796 E43.2737
G1 X3.999 Y9.799 E43.52435
G1 X3.599 Y9.799 E43.52946
G1 X3.6 Y-9.796 E43.78011
G1 X3.2 Y-9.796 E43.78522
G1 X3.199 Y9.799 E44.03587
G1 X2.799 Y9.799 E44.04098
G1 X2.8 Y-9.796 E44.29162
G1 X2.4 Y-9.797 E44.29674
G1 X2.399 Y9.799 E44.5474
G1 X1.999 Y9.798 E44.55251
G1 X2 Y-9.797 E44.80316
G1 X1.6 Y-9.797 E44.80827
G1 X1.599 Y9.798 E45.05892
G1 X1.199 Y9.798 E45.06403
G1 X1.2 Y-9.797 E45.31468
G1 X0.8 Y-9.797 E45.31979
G1 X0.799 Y9.798 E45.57044
G1 X0.399 Y9.798 E45.57555
G1 X0.4 Y-9.797 E45.8262
G1 X0.00 Y-9.798 E45.83131
G1 X0.00 Y9.798 E46.08197
G1 X-.4 Y9.797 E46.08708
G1 X-.399 Y-9.798 E46.33773
G1 X-.799 Y-9.798 E46.34284
G1 X-.8 Y9.797 E46.59349
G1 X-1.2 Y9.797 E46.5986
G1 X-1.199 Y-9.798 E46.84925
G1 X-1.599 Y-9.798 E46.85436
G1 X-1.6 Y9.797 E47.10501
G1 X-2 Y9.797 E47.11012
G1 X-1.999 Y-9.798 E47.36077
G1 X-2.399 Y-9.799 E47.36588
G1 X-2.4 Y9.797 E47.61654
G1 X-2.8 Y9.796 E47.62165
G1 X-2.799 Y-9.799 E47.8723
G1 X-3.199 Y-9.799 E47.87741
G1 X-3.2 Y9.796 E48.12806
G1 X-3.6 Y9.796 E48.13317
G1 X-3.599 Y-9.799 E48.38382
G1 X-3.999 Y-9.799 E48.38893
G1 X-4 Y9.796 E48.63958
G1 X-4.4 Y9.796 E48.64469
G1 X-4.399 Y-9.799 E48.89534
G1 X-4.799 Y-9.799 E48.90045
G1 X-4.8 Y9.796 E49.1511
G1 X-5.049 Y9.796 E49.15428
G1 X-5.2 Y9.786 E49.15622
G1 X-5.199 Y-9.782 E49.40651
G1 X-5.599 Y-9.746 E49.41165
G1 X-5.6 Y9.752 E49.66105
G1 X-5.756 Y9.733 E49.66306
G1 X-6 Y9.685 E49.66625
G1 X-5.999 Y-9.683 E49.91398
G1 X-6.04 Y-9.676 E49.91452
G1 X-6.283 Y-9.617 E49.91772
G1 X-6.399 Y-9.581 E49.91927
G1 X-6.4 Y9.581 E50.16437
G1 X-6.632 Y9.506 E50.16749
G1 X-6.8 Y9.439 E50.16981
G1 X-6.799 Y-9.441 E50.4113
G1 X-6.862 Y-9.416 E50.41217
G1 X-7.146 Y-9.284 E50.41618
G1 X-7.199 Y-9.256 E50.41694
G1 X-7.2 Y9.256 E50.65373
G1 X-7.45 Y9.117 E50.65739
G1 X-7.6 Y9.021 E50.65967
G1 X-7.599 Y-9.022 E50.89046
G1 X-7.677 Y-8.973 E50.89164
G1 X-7.908 Y-8.807 E50.89528
G1 X-7.999 Y-8.733 E50.89678
G1 X-8 Y8.733 E51.12019
G1 X-8.185 Y8.578 E51.12328
G1 X-8.4 Y8.375 E51.12706
G1 X-8.399 Y-8.375 E51.34131
G1 X-8.578 Y-8.185 E51.34465
G1 X-8.764 Y-7.964 E51.34834
G1 X-8.799 Y-7.917 E51.34909
G1 X-8.8 Y7.916 E51.55162
G1 X-8.807 Y7.908 E51.55175
G1 X-8.973 Y7.677 E51.55539
G1 X-9.151 Y7.393 E51.55968
G1 X-9.2 Y7.302 E51.561
G1 X-9.2 Y-7.304 E51.74783
G1 X-9.256 Y-7.202 E51.74932
G1 X-9.4 Y-6.898 E51.75362
G1 X-9.506 Y-6.631 E51.75729
G1 X-9.6 Y-6.343 E51.76117
G1 X-9.6 Y6.337 E51.92336
G1 X-9.617 Y6.283 E51.92409
G1 X-9.678 Y6.034 E51.92736
G1 X-9.739 Y5.67 E51.93209
G1 X-9.79 Y5.101 E51.93939
G1 X-9.8 Y4.888 E51.94212
G1 X-9.796 Y-5.049 E52.06923
G1 X-9.77 Y-5.453 E52.0744
G1 X-9.734 Y-5.75 E52.07823
G1 X-9.675 Y-6.057 E52.08223
G0 F7200 X4 Y4
;TIME_ELAPSED:150.071060
;LAYER:0
M106 S255
G0 F3600 X4 Y4 Z1.58
;TYPE:WALL-INNER
G1 F1200 X-4 Y4 E52.23572
G1 X-4 Y-4 E52.38922
G1 X4 Y-4 E52.54271
