;FLAVOR:Marlin
;TIME:1855
;Filament used: 1.28228m
;Layer height: 0.1
;Generated with Cura_SteamEngine 3.3.1
M104 S190
M109 S190
M82 ;absolute extrusion mode
G28 ;Home
G1 Z15.0 F6000 ;Move the platform down 15mm
G92 E0
G1 F200 E1
G92 E0
G92 E0
G1 F1500 E-4
;LAYER_COUNT:199
;LAYER:0
M107
G0 F3600 X17.8 Y-9.883 Z0.3
;TYPE:SKIRT
G1 F1500 E0
G1 F1800 X17.8 Y9.883 E0.98613
G0 F3600 X-8.429 Y7.975
G1 F1800 X-7.975 Y8.429 E154.75113
G0 F3600 X9 Y9
;TIME_ELAPSED:114.534172
;LAYER:1
M106 S255
G0 F5400 X9 Y9 Z0.4
;TYPE:WALL-INNER
G1 F2700 X-9 Y9 E155.05047
G1 X-9 Y-9 E155.34981
G1 X9 Y-9 E155.64915
G1 X9 Y9 E155.9485
G0 F5400 X9.4 Y9.4
G1 F2700 X-9.4 Y9.4 E156.26114
G1 X9.4 Y9.4 E157.19908
G0 F5400 X9.8 Y9.8
;TYPE:WALL-OUTER
G1 F1800 X-9.8 Y9.8 E157.52503
G1 X-9.8 Y-9.8 E157.85098
G0 X8.61 Y8.61
;TYPE:SKIN
G1 F1800 X-8.61 Y8.61 E158.78924
G1 X-8.61 Y-8.61 E159.07561
G1 X8.61 Y-8.61 E159.36198
G0 F5400 X-8.429 Y-7.975
G1 F1800 X-7.975 Y-8.429 E171.46638
G0 F5400 X9 Y9
;TIME_ELAPSED:148.304308
;LAYER:2
G0 F7200 X9 Y9 Z0.5
;TYPE:WALL-INNER
G1 F3600 X-9 Y9 E171.76572
G1 X-9 Y-9 E172.06507
G1 X9 Y-9 E172.36441
G1 X9 Y9 E172.66375
G0 F7200 X9.4 Y9.4
G1 F3600 X-9.4 Y9.4 E172.97639
G1 X-9.4 Y-9.4 E173.28904
G1 X9.4 Y-9.4 E173.60168
G1 X9.4 Y9.4 E173.91433
G0 F7200 X9.8 Y9.8
;TYPE:WALL-OUTER
G1 F1800 X-9.8 Y9.8 E174.24028
G1 X-9.8 Y-9.8 E174.56623
G1 X9.8 Y-9.8 E174.89218
G1 X9.8 Y9.8 E175.21813
G0 F7200 X9.6 Y9.8
G0 X9.33 Y9.33
G0 X8.61 Y8.61
;TYPE:SKIN
G1 F1800 X-8.61 Y8.61 E175.5045
G1 X-8.61 Y-8.61 E175.79087
G1 X8.61 Y-8.61 E176.07724
G1 X8.61 Y8.61 E176.36361
G0 F7200 X7.975 Y-8.429
G1 F1800 X8.429 Y-7.975 E176.37428
G0 F7200 X8.429 Y-7.409
G0 F7200 X-8.429 Y7.975
G1 F1800 X-7.975 Y8.429 E188.18163
G0 F7200 X9 Y9
;TIME_ELAPSED:181.349940
;LAYER:3
G0 X9 Y9 Z0.6
;TYPE:WALL-INNER
G1 F3600 X-9 Y9 E188.48098
G1 X-9 Y-9 E188.78032
G1 X9 Y-9 E189.07966
G1 X9 Y9 E189.379
G0 F7200 X9.4 Y9.4
G1 F3600 X-9.4 Y9.4 E189.69165
G1 X-9.4 Y-9.4 E190.00429
G1 X9.4 Y-9.4 E190.31694
G1 X9.4 Y9.4 E190.62958
G0 F7200 X9.8 Y9.8
;TYPE:WALL-OUTER
G1 F1800 X-9.8 Y9.8 E190.95553
G1 X-9.8 Y-9.8 E191.28148
G1 X9.8 Y-9.8 E191.60743
G1 X9.8 Y9.8 E191.93338
G0 F7200 X9.6 Y9.8
G0 X9.33 Y9.33
G0 X8.61 Y8.61
;TYPE:SKIN
G1 F1800 X-8.61 Y8.61 E192.21975
G1 X-8.61 Y-8.61 E192.50612
G1 X8.61 Y-8.61 E192.79249
G1 X8.61 Y8.61 E193.07886
G0 F7200 X7.975 Y8.429
G1 F1800 X-8.429 Y-7.409 E204.88621
G1 X-8.499 Y-7.339
G0 F7200 X-8.429 Y-7.975
G1 F1800 X-7.975 Y-8.429 E204.89689
G0 F7200 X9 Y9
;TIME_ELAPSED:214.311312
;LAYER:4
G0 X9 Y9 Z0.7
;TYPE:WALL-INNER
G1 F3600 X-9 Y9 E205.19623
G1 X-9 Y-9 E205.49557
G1 X9 Y-9 E205.79491
G1 X9 Y9 E206.09425
G0 F7200 X9.4 Y9.4
G1 F3600 X-9.4 Y9.4 E206.4069
G1 X-9.4 Y-9.4 E206.71954
G1 X9.4 Y-9.4 E207.03219
G1 X9.4 Y9.4 E207.34483
G0 F7200 X9.8 Y9.8
;TYPE:WALL-OUTER
G1 F1800 X-9.8 Y9.8 E207.67078
G1 X-9.8 Y-9.8 E207.99673
G1 X9.8 Y-9.8 E208.32268
G1 X9.8 Y9.8 E208.64863
G0 F7200 X9.6 Y9.8
G0 X9.33 Y9.33
G0 X8.61 Y8.61
;TYPE:SKIN
G1 F1800 X-8.61 Y8.61 E208.935
G1 X-8.61 Y-8.61 E209.22137
G1 X8.61 Y-8.61 E209.50774
G1 X8.61 Y8.61 E209.79411
G0 F7200 X-7.409 Y8.429
G1 F1800 X-8.429 Y7.409 E221.60146
G1 X-8.499 Y7.339
G0 F7200 X-8.429 Y7.975
G1 F1800 X-7.975 Y8.429 E221.61214
G0 F7200 X9 Y9
;TIME_ELAPSED:247.356945
;LAYER:5
G0 X9 Y9 Z0.8
;TYPE:WALL-INNER
G1 F3600 X-9 Y9 E221.91148
G1 X-9 Y-9 E222.21082
G1 X9 Y-9 E222.51016
G1 X9 Y9 E222.8095
G0 F7200 X9.4 Y9.4
G1 F3600 X-9.4 Y9.4 E223.12215
G1 X-9.4 Y-9.4 E223.43479
G1 X9.4 Y-9.4 E223.74744
G1 X9.4 Y9.4 E224.06008
G0 F7200 X9.8 Y9.8
;TYPE:WALL-OUTER
G1 F1800 X-9.8 Y9.8 E224.38603
G1 X-9.8 Y-9.8 E224.71198
G1 X9.8 Y-9.8 E225.03793
G1 X9.8 Y9.8 E225.36388
G0 F7200 X9.6 Y9.8
G0 X9.33 Y9.33
G0 X8.61 Y8.61
;TYPE:SKIN
G1 F1800 X-8.61 Y8.61 E225.65025
G1 X-8.61 Y-8.61 E225.93662
G1 X8.61 Y-8.61 E226.22299
G1 X8.61 Y8.61 E226.50936
G0 F7200 X7.975 Y8.429
G1 F1800 X8.429 Y7.975 E226.52004
G0 F7200 X8.429 Y7.409
G1 F1800 X7.409 Y8.429 E226.54403
G1 X7.339 Y8.499
G0 F7200 X-7.409 Y-8.429
G1 F1800 X-8.429 Y-7.409 E238.31671
G1 X-8.499 Y-7.339
G0 F7200 X-8.429 Y-7.975
G1 F1800 X-7.975 Y-8.429 E238.32739
G0 F7200 X9 Y9
;TIME_ELAPSED:280.318317
;LAYER:6
G0 X9 Y9 Z0.9
;TYPE:WALL-INNER
G1 F3600 X-9 Y9 E238.62673
G1 X-9 Y-9 E238.92607
G1 X9 Y-9 E239.22541
G1 X9 Y9 E239.52476
G0 F7200 X9.4 Y9.4
G1 F3600 X-9.4 Y9.4 E239.8374
G1 X-9.4 Y-9.4 E240.15005
G1 X9.4 Y-9.4 E240.46269
G1 X9.4 Y9.4 E240.77534
G0 F7200 X9.8 Y9.8
;TYPE:WALL-OUTER
G1 F1800 X-9.8 Y9.8 E241.10129
G1 X-9.8 Y-9.8 E241.42724
G1 X9.8 Y-9.8 E241.75318
G1 X9.8 Y9.8 E242.07913
G0 F7200 X9.6 Y9.8
G0 X9.33 Y9.33
G0 X8.61 Y8.61
;TYPE:SKIN
G1 F1800 X-8.61 Y8.61 E242.3655
G1 X-8.61 Y-8.61 E242.65187
G1 X8.61 Y-8.61 E242.93824
G1 X8.61 Y8.61 E243.22461
G0 F7200 X7.975 Y-8.429
G1 F1800 X8.429 Y-7.975 E243.23529
G0 F7200 X8.429 Y-7.409
G1 F1800 X7.409 Y-8.429 E243.25928
G0 F7200 X-7.409 Y8.429
G1 F1800 X-8.429 Y7.409 E255.03197
G1 X-8.499 Y7.339
G0 F7200 X-8.429 Y7.975
G1 F1800 X-7.975 Y8.429 E255.04264
G0 F7200 X9 Y9
;TIME_ELAPSED:313.363949
;LAYER:7
G0 X9 Y9 Z1
;TYPE:WALL-INNER
G1 F3600 X-9 Y9 E255.34198
G1 X-9 Y-9 E255.64133
G1 X9 Y-9 E255.94067
G1 X9 Y9 E256.24001
G0 F7200 X9.4 Y9.4
G1 F3600 X-9.4 Y9.4 E256.55265
G1 X-9.4 Y-9.4 E256.8653
G1 X9.4 Y-9.4 E257.17794
G1 X9.4 Y9.4 E257.49059
G0 F7200 X9.8 Y9.8
;TYPE:WALL-OUTER
G1 F1800 X-9.8 Y9.8 E257.81654
G1 X-9.8 Y-9.8 E258.14249
G1 X9.8 Y-9.8 E258.46844
G1 X9.8 Y9.8 E258.79439
G0 F7200 X9.6 Y9.8
G0 X9.33 Y9.33
G0 X8.61 Y8.61
;TYPE:SKIN
G1 F1800 X-8.61 Y8.61 E259.08076
G1 X-8.61 Y-8.61 E259.36713
G1 X8.61 Y-8.61 E259.6535
G1 X8.61 Y8.61 E259.93987
G0 F7200 X7.975 Y8.429
G1 F1800 X8.429 Y7.975 E259.95054
G0 F7200 X8.429 Y7.409
G0 F7200 X-8.429 Y-7.975
G1 F1800 X-7.975 Y-8.429 E271.75789
G0 F7200 X8.838 Y-1.563
;TIME_ELAPSED:346.273310
;LAYER:8
G0 X8.838 Y-1.563 Z1.1
;TYPE:FILL
G1 F3600 X-8.838 Y3.172 E272.06221
G1 X-8.934 Y3.197
G0 F7200 X-3.173 Y8.839
G1 F3600 X1.564 Y-8.839 E272.36657
G1 X1.589 Y-8.935
G0 F7200 X-7.74 Y-8.839
G1 F3600 X8.839 Y7.74 E272.75648
G1 X8.909 Y7.81
G0 F7200 X9 Y9
;TYPE:WALL-INNER
G1 F3600 X-9 Y9 E273.05582
G1 X-9 Y-9 E273.35516
G1 X9 Y-9 E273.65451
G1 X9 Y9 E273.95385
G0 F7200 X9.4 Y9.4
G1 F3600 X-9.4 Y9.4 E274.26649
G1 X-9.4 Y-9.4 E274.57914
G1 X9.4 Y-9.4 E274.89178
G1 X9.4 Y9.4 E275.20443
G0 F7200 X9.8 Y9.8
;TYPE:WALL-OUTER
G1 F1800 X-9.8 Y9.8 E275.53038
G1 X-9.8 Y-9.8 E275.85633
G1 X9.8 Y-9.8 E276.18228
G1 X9.8 Y9.8 E276.50823
G0 F7200 X9.6 Y9.8
G0 X9 Y9.118
G0 X8.838 Y-1.49
;TIME_ELAPSED:352.889223
;LAYER:9
G0 X8.838 Y-1.49 Z1.2
;TYPE:FILL
G1 F3600 X-8.838 Y3.246 E276.81255
G1 X-8.934 Y3.271
G0 F7200 X-3.246 Y8.839
G1 F3600 X1.49 Y-8.839 E277.1169
G1 X1.515 Y-8.935
G0 F7200 X-7.64 Y-8.839
G1 F3600 X8.839 Y7.64 E277.50446
G1 X8.909 Y7.71
G0 F7200 X9 Y9
;TYPE:WALL-INNER
G1 F3600 X-9 Y9 E277.8038
G1 X-9 Y-9 E278.10314
G1 X9 Y-9 E278.40249
G1 X9 Y9 E278.70183
G0 F7200 X9.4 Y9.4
G1 F3600 X-9.4 Y9.4 E279.01447
G1 X-9.4 Y-9.4 E279.32712
G1 X9.4 Y-9.4 E279.63976
G1 X9.4 Y9.4 E279.95241
G0 F7200 X9.8 Y9.8
;TYPE:WALL-OUTER
G1 F1800 X-9.8 Y9.8 E280.27836
G1 X-9.8 Y-9.8 E280.60431
G1 X9.8 Y-9.8 E280.93026
G1 X9.8 Y9.8 E281.2562
G0 F7200 X9.6 Y9.8
G0 X9 Y9.118
G0 X8.838 Y-1.416
;TIME_ELAPSED:359.501224
;LAYER:10
G0 X8.838 Y-1.416 Z1.3
;TYPE:FILL
G1 F3600 X-8.838 Y3.319 E281.56052
G1 X-8.934 Y3.344
G0 F7200 X-3.32 Y8.839
G1 F3600 X1.417 Y-8.839 E281.86488
G1 X1.442 Y-8.935
G0 F7200 X-7.539 Y-8.839
G1 F3600 X8.839 Y7.539 E282.25007
G1 X8.909 Y7.609
G0 F7200 X9 Y9
;TYPE:WALL-INNER
G1 F3600 X-9 Y9 E282.54941
G1 X-9 Y-9 E282.84875
G1 X9 Y-9 E283.14809
G1 X9 Y9 E283.44743
G0 F7200 X9.4 Y9.4
G1 F3600 X-9.4 Y9.4 E283.76008
G1 X-9.4 Y-9.4 E284.07272
G1 X9.4 Y-9.4 E284.38537
G1 X9.4 Y9.4 E284.69801
G0 F7200 X9.8 Y9.8
;TYPE:WALL-OUTER
G1 F1800 X-9.8 Y9.8 E285.02396
G1 X-9.8 Y-9.8 E285.34991
G1 X9.8 Y-9.8 E285.67586
G1 X9.8 Y9.8 E286.00181
G0 F7200 X9.6 Y9.8
G0 X9 Y9.118
G0 X8.839 Y-1.344
;TIME_ELAPSED:366.109271
;LAYER:11
G0 X8.839 Y-1.344 Z1.4
;TYPE:FILL
G1 F3600 X-8.839 Y3.392 E286.30616
G1 X-8.935 Y3.417
G0 F7200 X-3.392 Y8.84
G1 F3600 X1.344 Y-8.84 E286.61055
G1 X1.369 Y-8.936
G0 F7200 X-7.44 Y-8.839
G1 F3600 X8.839 Y7.44 E286.9934
G1 X8.909 Y7.51
G0 F7200 X9 Y9
;TYPE:WALL-INNER
G1 F3600 X-9 Y9 E287.29275
G1 X-9 Y-9 E287.59209
G1 X9 Y-9 E287.89143
G1 X9 Y9 E288.19077
G0 F7200 X9.4 Y9.4
G1 F3600 X-9.4 Y9.4 E288.50342
G1 X-9.4 Y-9.4 E288.81606
G1 X9.4 Y-9.4 E289.12871
G1 X9.4 Y9.4 E289.44135
G0 F7200 X9.8 Y9.8
;TYPE:WALL-OUTER
G1 F1800 X-9.8 Y9.8 E289.7673
G1 X-9.8 Y-9.8 E290.09325
G1 X9.8 Y-9.8 E290.4192
G1 X9.8 Y9.8 E290.74515
G0 F7200 X9.6 Y9.8
G0 X9 Y9.118
G0 X8.839 Y-1.271
;TIME_ELAPSED:372.713435
;LAYER:12
G0 X8.839 Y-1.271 Z1.5
;TYPE:FILL
G1 F3600 X-8.839 Y3.465 E291.0495
G1 X-8.935 Y3.49
G0 F7200 X-3.466 Y8.84
G1 F3600 X1.271 Y-8.84 E291.35389
G1 X1.296 Y-8.936
G0 F7200 X-7.34 Y-8.839
G1 F3600 X8.839 Y7.34 E291.7344
G1 X8.909 Y7.41
G0 F7200 X9 Y9
;TYPE:WALL-INNER
G1 F3600 X-9 Y9 E292.03374
G1 X-9 Y-9 E292.33308
G1 X9 Y-9 E292.63242
G1 X9 Y9 E292.93176
G0 F7200 X9.4 Y9.4
G1 F3600 X-9.4 Y9.4 E293.24441
G1 X-9.4 Y-9.4 E293.55705
G1 X9.4 Y-9.4 E293.8697
G1 X9.4 Y9.4 E294.18234
G0 F7200 X9.8 Y9.8
;TYPE:WALL-OUTER
G1 F1800 X-9.8 Y9.8 E294.50829
G1 X-9.8 Y-9.8 E294.83424
G1 X9.8 Y-9.8 E295.16019
G1 X9.8 Y9.8 E295.48614
G0 F7200 X9.6 Y9.8
G0 X9 Y9.118
G0 X8.839 Y-1.197
;TIME_ELAPSED:379.313564
;LAYER:13
G0 X8.839 Y-1.197 Z1.6
;TYPE:FILL
G1 F3600 X-8.839 Y3.539 E295.79049
G1 X-8.935 Y3.564
G0 F7200 X-3.539 Y8.84
G1 F3600 X1.197 Y-8.84 E296.09488
G1 X1.222 Y-8.936
G0 F7200 X-7.24 Y-8.839
G1 F3600 X8.839 Y7.24 E296.47303
G1 X8.909 Y7.31
G0 F7200 X9 Y9
;TYPE:WALL-INNER
G1 F3600 X-9 Y9 E296.77237
G1 X-9 Y-9 E297.07172
G1 X9 Y-9 E297.37106
G1 X9 Y9 E297.6704
G0 F7200 X9.4 Y9.4
G1 F3600 X-9.4 Y9.4 E297.98304
G1 X-9.4 Y-9.4 E298.29569
G1 X9.4 Y-9.4 E298.60833
G1 X9.4 Y9.4 E298.92098
G0 F7200 X9.8 Y9.8
;TYPE:WALL-OUTER
G1 F1800 X-9.8 Y9.8 E299.24693
G1 X-9.8 Y-9.8 E299.57288
G1 X9.8 Y-9.8 E299.89883
G1 X9.8 Y9.8 E300.22478
G0 F7200 X9.6 Y9.8
G0 X9 Y9.118
G0 X8.839 Y-1.124
;TIME_ELAPSED:385.909614
;LAYER:14
G0 X8.839 Y-1.124 Z1.7
;TYPE:FILL
G1 F3600 X-8.839 Y3.612 E300.52913
G1 X-8.935 Y3.637
G0 F7200 X-3.613 Y8.84
G1 F3600 X1.124 Y-8.84 E300.83352
G1 X1.149 Y-8.936
G0 F7200 X-7.139 Y-8.839
G1 F3600 X8.839 Y7.139 E301.2093
G1 X8.909 Y7.209
G0 F7200 X9 Y9
;TYPE:WALL-INNER
G1 F3600 X-9 Y9 E301.50864
G1 X-9 Y-9 E301.80798
G1 X9 Y-9 E302.10732
G1 X9 Y9 E302.40666
G0 F7200 X9.4 Y9.4
G1 F3600 X-9.4 Y9.4 E302.71931
G1 X-9.4 Y-9.4 E303.03195
G1 X9.4 Y-9.4 E303.3446
G1 X9.4 Y9.4 E303.65724
G0 F7200 X9.8 Y9.8
;TYPE:WALL-OUTER
G1 F1800 X-9.8 Y9.8 E303.98319
G1 X-9.8 Y-9.8 E304.30914
G1 X9.8 Y-9.8 E304.63509
G1 X9.8 Y9.8 E304.96104
G0 F7200 X9.6 Y9.8
G0 X9 Y9.118
G0 X1.051 Y-8.839
;TIME_ELAPSED:392.571701
;LAYER:15
G0 X1.051 Y-8.839 Z1.8
;TYPE:FILL
G1 F3600 X-3.685 Y8.84 E305.26541
G1 X-3.71 Y8.936
G0 F7200 X-8.839 Y3.685
G1 F3600 X8.839 Y-1.051 E305.56976
G1 X8.935 Y-1.076
G0 F7200 X8.839 Y7.04
G1 F3600 X-7.04 Y-8.839 E305.94321
G1 X-7.11 Y-8.909
G0 F7200 X9 Y9
;TYPE:WALL-INNER
G1 F3600 X-9 Y9 E306.24256
G1 X-9 Y-9 E306.5419
G1 X9 Y-9 E306.84124
G1 X9 Y9 E307.14058
G0 F7200 X9.4 Y9.4
G1 F3600 X-9.4 Y9.4 E307.45322
G1 X-9.4 Y-9.4 E307.76587
G1 X9.4 Y-9.4 E308.07851
G1 X9.4 Y9.4 E308.39116
G0 F7200 X9.8 Y9.8
;TYPE:WALL-OUTER
G1 F1800 X-9.8 Y9.8 E308.71711
G1 X-9.8 Y-9.8 E309.04306
G1 X9.8 Y-9.8 E309.36901
G1 X9.8 Y9.8 E309.69496
G0 F7200 X9.6 Y9.8
G0 X9 Y9.118
G0 X8.839 Y-.978
;TIME_ELAPSED:399.352573
;LAYER:16
G0 X8.839 Y-.978 Z1.9
;TYPE:FILL
G1 F3600 X-8.839 Y3.758 E309.99931
G1 X-8.935 Y3.783
G0 F7200 X-3.759 Y8.84
G1 F3600 X0.978 Y-8.84 E310.3037
G1 X1.003 Y-8.936
G0 F7200 X-6.94 Y-8.839
G1 F3600 X8.839 Y6.94 E310.6748
G1 X8.909 Y7.01
G0 F7200 X9 Y9
;TYPE:WALL-INNER
G1 F3600 X-9 Y9 E310.97414
G1 X-9 Y-9 E311.27348
G1 X9 Y-9 E311.57282
G1 X9 Y9 E311.87216
G0 F7200 X9.4 Y9.4
G1 F3600 X-9.4 Y9.4 E312.18481
G1 X-9.4 Y-9.4 E312.49745
G1 X9.4 Y-9.4 E312.8101
G1 X9.4 Y9.4 E313.12274
G0 F7200 X9.8 Y9.8
;TYPE:WALL-OUTER
G1 F1800 X-9.8 Y9.8 E313.44869
G1 X-9.8 Y-9.8 E313.77464
G1 X9.8 Y-9.8 E314.10059
G1 X9.8 Y9.8 E314.42654
G0 F7200 X9.6 Y9.8
G0 X9 Y9.118
G0 X8.839 Y-.904
;TIME_ELAPSED:405.936237
;LAYER:17
G0 X8.839 Y-.904 Z2
;TYPE:FILL
G1 F3600 X-8.839 Y3.832 E314.7309
G1 X-8.935 Y3.857
G0 F7200 X-3.832 Y8.84
G1 F3600 X0.904 Y-8.84 E315.03528
G1 X0.929 Y-8.936
G0 F7200 X-6.839 Y-8.839
G1 F3600 X8.839 Y6.839 E315.404
G1 X8.909 Y6.909
G0 F7200 X9 Y9
;TYPE:WALL-INNER
G1 F3600 X-9 Y9 E315.70335
G1 X-9 Y-9 E316.00269
G1 X9 Y-9 E316.30203
G1 X9 Y9 E316.60137
G0 F7200 X9.4 Y9.4
G1 F3600 X-9.4 Y9.4 E316.91401
G1 X-9.4 Y-9.4 E317.22666
G1 X9.4 Y-9.4 E317.5393
G1 X9.4 Y9.4 E317.85195
G0 F7200 X9.8 Y9.8
;TYPE:WALL-OUTER
G1 F1800 X-9.8 Y9.8 E318.1779
G1 X-9.8 Y-9.8 E318.50385
G1 X9.8 Y-9.8 E318.8298
G1 X9.8 Y9.8 E319.15575
G0 F7200 X9.6 Y9.8
G0 X9 Y9.118
G0 X8.838 Y-.832
;TIME_ELAPSED:412.515687
;LAYER:18
G0 X8.838 Y-.832 Z2.1
;TYPE:FILL
G1 F3600 X-8.838 Y3.904 E319.46007
G1 X-8.934 Y3.929
G0 F7200 X-3.904 Y8.839
G1 F3600 X0.832 Y-8.839 E319.76442
G1 X0.857 Y-8.935
G0 F7200 X-6.74 Y-8.839
G1 F3600 X8.839 Y6.74 E320.13082
G1 X8.909 Y6.81
G0 F7200 X9 Y9
;TYPE:WALL-INNER
G1 F3600 X-9 Y9 E320.43016
G1 X-9 Y-9 E320.7295
G1 X9 Y-9 E321.02884
G1 X9 Y9 E321.32818
G0 F7200 X9.4 Y9.4
G1 F3600 X-9.4 Y9.4 E321.64083
G1 X-9.4 Y-9.4 E321.95347
G1 X9.4 Y-9.4 E322.26612
G1 X9.4 Y9.4 E322.57876
G0 F7200 X9.8 Y9.8
;TYPE:WALL-OUTER
G1 F1800 X-9.8 Y9.8 E322.90471
G1 X-9.8 Y-9.8 E323.23066
G1 X9.8 Y-9.8 E323.55661
G1 X9.8 Y9.8 E323.88256
G0 F7200 X9.6 Y9.8
G0 X9 Y9.118
G0 X8.838 Y-.758
;TIME_ELAPSED:419.090887
;LAYER:19
G0 X8.838 Y-.758 Z2.2
;TYPE:FILL
G1 F3600 X-8.838 Y3.978 E324.18688
G1 X-8.934 Y4.003
G0 F7200 X-3.978 Y8.839
G1 F3600 X0.758 Y-8.839 E324.49123
G1 X0.783 Y-8.935
G0 F7200 X-6.64 Y-8.839
G1 F3600 X8.839 Y6.64 E324.85528
G1 X8.909 Y6.71
G0 F7200 X9 Y9
;TYPE:WALL-INNER
G1 F3600 X-9 Y9 E325.15462
G1 X-9 Y-9 E325.45396
G1 X9 Y-9 E325.7533
G1 X9 Y9 E326.05264
G0 F7200 X9.4 Y9.4
G1 F3600 X-9.4 Y9.4 E326.36529
G1 X-9.4 Y-9.4 E326.67793
G1 X9.4 Y-9.4 E326.99058
G1 X9.4 Y9.4 E327.30322
G0 F7200 X9.8 Y9.8
;TYPE:WALL-OUTER
G1 F1800 X-9.8 Y9.8 E327.62917
G1 X-9.8 Y-9.8 E327.95512
G1 X9.8 Y-9.8 E328.28107
G1 X9.8 Y9.8 E328.60702
G0 F7200 X9.6 Y9.8
G0 X9 Y9.118
G0 X8.838 Y-.685
;TIME_ELAPSED:425.661838
;LAYER:20
G0 X8.838 Y-.685 Z2.3
;TYPE:FILL
G1 F3600 X-8.838 Y4.051 E328.91134
G1 X-8.934 Y4.076
G0 F7200 X-4.051 Y8.839
G1 F3600 X0.685 Y-8.839 E329.2157
G1 X0.71 Y-8.935
G0 F7200 X-6.54 Y-8.839
G1 F3600 X8.839 Y6.54 E329.57739
G1 X8.909 Y6.61
G0 F7200 X9 Y9
;TYPE:WALL-INNER
G1 F3600 X-9 Y9 E329.87673
G1 X-9 Y-9 E330.17607
G1 X9 Y-9 E330.47541
G1 X9 Y9 E330.77475
G0 F7200 X9.4 Y9.4
G1 F3600 X-9.4 Y9.4 E331.0874
G1 X-9.4 Y-9.4 E331.40004
G1 X9.4 Y-9.4 E331.71269
G1 X9.4 Y9.4 E332.02533
G0 F7200 X9.8 Y9.8
;TYPE:WALL-OUTER
G1 F1800 X-9.8 Y9.8 E332.35128
G1 X-9.8 Y-9.8 E332.67723
G1 X9.8 Y-9.8 E333.00318
G1 X9.8 Y9.8 E333.32913
G0 F7200 X9.6 Y9.8
G0 X9 Y9.118
G0 X8.838 Y-.611
;TIME_ELAPSED:432.228529
;LAYER:21
G0 X8.838 Y-.611 Z2.4
;TYPE:FILL
G1 F3600 X-8.838 Y4.125 E333.63345
G1 X-8.934 Y4.15
G0 F7200 X-4.125 Y8.839
G1 F3600 X0.611 Y-8.839 E333.9378
G1 X0.636 Y-8.935
G0 F7200 X-6.439 Y-8.839
G1 F3600 X8.839 Y6.439 E334.29712
G1 X8.909 Y6.509
G0 F7200 X9 Y9
;TYPE:WALL-INNER
G1 F3600 X-9 Y9 E334.59646
G1 X-9 Y-9 E334.8958
G1 X9 Y-9 E335.19514
G1 X9 Y9 E335.49448
