;FLAVOR:Marlin
;TIME:1855
;Filament used: 1.28228m
;Layer height: 0.1
;Generated with Cura_SteamEngine 3.3.1
M104 S190
M109 S190
M82 ;absolute extrusion mode
G28 ;Home
G1 Z15.0 F6000 ;Move the platform down 15mm
G92 E0
G1 F200 E1
G92 E0
G92 E0
G1 F1500 E-4
;LAYER_COUNT:199
;LAYER:0
M107
G0 F3600 X17.8 Y-9.883 Z0.3
;TYPE:SKIRT
G1 F1500 E0
G1 F1800 X17.8 Y9.883 E0.98613
G1 X17.76 Y10.672 E1.02554
G1 X17.641 Y11.452 E1.06491
G1 X17.443 Y12.217 E1.10433
G1 X17.169 Y12.957 E1.1437
G1 X16.821 Y13.666 E1.1831
G1 X16.403 Y14.337 E1.22254
G1 X15.92 Y14.961 E1.26191
G1 X15.515 Y15.398 E1.29164
G1 X15.398 Y15.515 E1.29989
G1 X14.812 Y16.045 E1.33931
G1 X14.176 Y16.512 E1.37868
G1 X13.496 Y16.913 E1.41806
G1 X12.778 Y17.243 E1.45749
G1 X12.031 Y17.498 E1.49687
G1 X11.262 Y17.677 E1.53626
G1 X10.478 Y17.777 E1.57569
G1 X9.883 Y17.8 E1.60539
G1 X-9.883 Y17.8 E2.59152
G1 X-10.672 Y17.76 E2.63094
G1 X-11.452 Y17.641 E2.6703
G1 X-12.217 Y17.443 E2.70973
G1 X-12.957 Y17.169 E2.74909
G1 X-13.666 Y16.821 E2.7885
G1 X-14.337 Y16.403 E2.82794
G1 X-14.961 Y15.92 E2.86731
G1 X-15.398 Y15.515 E2.89703
G1 X-15.515 Y15.398 E2.90529
G1 X-16.045 Y14.812 E2.94471
G1 X-16.512 Y14.176 E2.98407
G1 X-16.913 Y13.496 E3.02346
G1 X-17.243 Y12.778 E3.06288
G1 X-17.498 Y12.031 E3.10226
G1 X-17.677 Y11.262 E3.14165
G1 X-17.777 Y10.478 E3.18108
G1 X-17.8 Y9.883 E3.21079
G1 X-17.8 Y-9.883 E4.19692
G1 X-17.76 Y-10.672 E4.23633
G1 X-17.641 Y-11.452 E4.2757
G1 X-17.443 Y-12.217 E4.31512
G1 X-17.169 Y-12.957 E4.35449
G1 X-16.821 Y-13.666 E4.39389
G1 X-16.403 Y-14.337 E4.43333
G1 X-15.92 Y-14.961 E4.4727
G1 X-15.515 Y-15.398 E4.50243
G1 X-15.398 Y-15.515 E4.51068
G1 X-14.812 Y-16.045 E4.5501
G1 X-14.176 Y-16.512 E4.58946
G1 X-13.496 Y-16.913 E4.62885
G1 X-12.778 Y-17.243 E4.66827
G1 X-12.031 Y-17.498 E4.70765
G1 X-11.262 Y-17.677 E4.74704
G1 X-10.478 Y-17.777 E4.78647
G1 X-9.883 Y-17.8 E4.81618
G1 X9.883 Y-17.8 E5.80231
G1 X10.672 Y-17.76 E5.84173
G1 X11.452 Y-17.641 E5.88109
G1 X12.217 Y-17.443 E5.92051
G1 X12.957 Y-17.169 E5.95988
G1 X13.666 Y-16.821 E5.99929
G1 X14.337 Y-16.403 E6.03873
G1 X14.961 Y-15.92 E6.07809
G1 X15.398 Y-15.515 E6.10782
G1 X15.515 Y-15.398 E6.11607
G1 X16.045 Y-14.812 E6.15549
G1 X16.512 Y-14.176 E6.19486
G1 X16.913 Y-13.496 E6.23424
G1 X17.243 Y-12.778 E6.27367
G1 X17.498 Y-12.031 E6.31305
G1 X17.677 Y-11.262 E6.35244
G1 X17.777 Y-10.478 E6.39187
G1 X17.8 Y-9.883 E6.42158
G0 F3600 X17.4 Y-9.883
G1 F1800 X17.4 Y9.883 E7.40771
G1 X17.36 Y10.651 E7.44607
G1 X17.241 Y11.411 E7.48445
G1 X17.043 Y12.154 E7.52281
G1 X16.769 Y12.873 E7.5612
G1 X16.422 Y13.559 E7.59956
G1 X16.006 Y14.206 E7.63793
G1 X15.525 Y14.806 E7.6763
G1 X15.233 Y15.116 E7.69754
G1 X15.116 Y15.233 E7.7058
G1 X14.544 Y15.747 E7.74416
G1 X13.922 Y16.2 E7.78255
G1 X13.257 Y16.586 E7.82091
G1 X12.555 Y16.901 E7.8593
G1 X11.824 Y17.141 E7.89769
G1 X11.073 Y17.304 E7.93603
G1 X10.308 Y17.388 E7.97442
G1 X9.883 Y17.4 E7.99563
G1 X-9.883 Y17.4 E8.98176
G1 X-10.651 Y17.36 E9.02013
G1 X-11.411 Y17.241 E9.05851
G1 X-12.154 Y17.043 E9.09687
G1 X-12.873 Y16.769 E9.13526
G1 X-13.559 Y16.422 E9.17361
G1 X-14.206 Y16.006 E9.21199
G1 X-14.806 Y15.525 E9.25035
G1 X-15.116 Y15.233 E9.2716
G1 X-15.233 Y15.116 E9.27986
G1 X-15.747 Y14.544 E9.31822
G1 X-16.2 Y13.922 E9.35661
G1 X-16.586 Y13.257 E9.39497
G1 X-16.901 Y12.555 E9.43336
G1 X-17.141 Y11.824 E9.47174
G1 X-17.304 Y11.073 E9.51008
G1 X-17.388 Y10.308 E9.54848
G1 X-17.4 Y9.883 E9.56969
G1 X-17.4 Y-9.883 E10.55582
G1 X-17.36 Y-10.651 E10.59419
G1 X-17.241 Y-11.411 E10.63257
G1 X-17.043 Y-12.154 E10.67093
G1 X-16.769 Y-12.873 E10.70932
G1 X-16.422 Y-13.559 E10.74767
G1 X-16.006 Y-14.206 E10.78605
G1 X-15.525 Y-14.806 E10.82441
G1 X-15.233 Y-15.116 E10.84566
G1 X-15.116 Y-15.233 E10.85391
G1 X-14.544 Y-15.747 E10.89228
G1 X-13.922 Y-16.2 E10.93067
G1 X-13.257 Y-16.586 E10.96903
G1 X-12.555 Y-16.901 E11.00742
G1 X-11.824 Y-17.141 E11.0458
G1 X-11.073 Y-17.304 E11.08414
G1 X-10.308 Y-17.388 E11.12254
G1 X-9.883 Y-17.4 E11.14375
G1 X9.883 Y-17.4 E12.12988
G1 X10.651 Y-17.36 E12.16825
G1 X11.411 Y-17.241 E12.20663
G1 X12.154 Y-17.043 E12.24499
G1 X12.873 Y-16.769 E12.28337
G1 X13.559 Y-16.422 E12.32173
G1 X14.206 Y-16.006 E12.3601
G1 X14.806 Y-15.525 E12.39847
G1 X15.116 Y-15.233 E12.41972
G1 X15.233 Y-15.116 E12.42797
G1 X15.747 Y-14.544 E12.46634
G1 X16.2 Y-13.922 E12.50473
G1 X16.586 Y-13.257 E12.54309
G1 X16.901 Y-12.555 E12.58148
G1 X17.141 Y-11.824 E12.61986
G1 X17.304 Y-11.073 E12.6582
G1 X17.388 Y-10.308 E12.6966
G1 X17.4 Y-9.883 E12.71781
G0 F3600 X17 Y-9.883
G1 F1800 X17 Y9.883 E13.70394
G1 X16.96 Y10.63 E13.74126
G1 X16.841 Y11.368 E13.77855
G1 X16.643 Y12.09 E13.8159
G1 X16.37 Y12.786 E13.8532
G1 X16.023 Y13.449 E13.89054
G1 X15.608 Y14.072 E13.92788
G1 X14.95 Y14.833 E13.97807
G1 X14.833 Y14.95 E13.98633
G1 X14.276 Y15.45 E14.02367
G1 X13.67 Y15.887 E14.06095
G1 X13.02 Y16.258 E14.09828
G1 X12.334 Y16.557 E14.13562
G1 X11.62 Y16.781 E14.17295
G1 X10.887 Y16.928 E14.21025
G1 X9.883 Y17 E14.26047
G1 X-9.883 Y17 E15.2466
G1 X-10.63 Y16.96 E15.28392
G1 X-11.368 Y16.841 E15.32121
G1 X-12.09 Y16.643 E15.35857
G1 X-12.786 Y16.37 E15.39586
G1 X-13.449 Y16.023 E15.4332
G1 X-14.072 Y15.608 E15.47054
G1 X-14.833 Y14.95 E15.52074
G1 X-14.95 Y14.833 E15.52899
G1 X-15.45 Y14.276 E15.56633
G1 X-15.887 Y13.67 E15.60361
G1 X-16.258 Y13.02 E15.64095
G1 X-16.557 Y12.334 E15.67828
G1 X-16.781 Y11.62 E15.71561
G1 X-16.928 Y10.887 E15.75291
G1 X-17 Y9.883 E15.80313
G1 X-17 Y-9.883 E16.78926
G1 X-16.96 Y-10.63 E16.82658
G1 X-16.841 Y-11.368 E16.86388
G1 X-16.643 Y-12.09 E16.90123
G1 X-16.37 Y-12.786 E16.93853
G1 X-16.023 Y-13.449 E16.97586
G1 X-15.608 Y-14.072 E17.01321
G1 X-14.95 Y-14.833 E17.0634
G1 X-14.833 Y-14.95 E17.07165
G1 X-14.276 Y-15.45 E17.10899
G1 X-13.67 Y-15.887 E17.14627
G1 X-13.02 Y-16.258 E17.18361
G1 X-12.334 Y-16.557 E17.22094
G1 X-11.62 Y-16.781 E17.25828
G1 X-10.887 Y-16.928 E17.29557
G1 X-9.883 Y-17 E17.34579
G1 X9.883 Y-17 E18.33192
G1 X10.63 Y-16.96 E18.36924
G1 X11.368 Y-16.841 E18.40654
G1 X12.09 Y-16.643 E18.44389
G1 X12.786 Y-16.37 E18.48119
G1 X13.449 Y-16.023 E18.51852
G1 X14.072 Y-15.608 E18.55587
G1 X14.833 Y-14.95 E18.60606
G1 X14.95 Y-14.833 E18.61431
G1 X15.45 Y-14.276 E18.65166
G1 X15.887 Y-13.67 E18.68893
G1 X16.258 Y-13.02 E18.72627
G1 X16.557 Y-12.334 E18.7636
G1 X16.781 Y-11.62 E18.80094
G1 X16.928 Y-10.887 E18.83823
G1 X17 Y-9.883 E18.88845
G0 F3600 X16.6 Y-9.883
G1 F1800 X16.6 Y9.883 E19.87458
G1 X16.56 Y10.608 E19.91081
G1 X16.441 Y11.325 E19.94707
G1 X16.243 Y12.024 E19.98331
G1 X15.97 Y12.697 E20.01955
G1 X15.625 Y13.336 E20.05578
G1 X15.211 Y13.933 E20.09202
G1 X14.667 Y14.55 E20.13306
G1 X14.55 Y14.667 E20.14132
G1 X14.009 Y15.151 E20.17753
G1 X13.418 Y15.574 E20.21379
G1 X12.784 Y15.928 E20.25002
G1 X12.115 Y16.211 E20.28626
G1 X11.419 Y16.419 E20.3225
G1 X10.704 Y16.549 E20.35875
G1 X9.883 Y16.6 E20.39979
G1 X-9.883 Y16.6 E21.38592
G1 X-10.608 Y16.56 E21.42215
G1 X-11.325 Y16.441 E21.45841
G1 X-12.024 Y16.243 E21.49465
G1 X-12.697 Y15.97 E21.53089
G1 X-13.336 Y15.625 E21.56712
G1 X-13.933 Y15.211 E21.60336
G1 X-14.55 Y14.667 E21.6444
G1 X-14.667 Y14.55 E21.65266
G1 X-15.151 Y14.009 E21.68887
G1 X-15.574 Y13.418 E21.72513
G1 X-15.928 Y12.784 E21.76136
G1 X-16.211 Y12.115 E21.7976
G1 X-16.419 Y11.419 E21.83384
G1 X-16.549 Y10.704 E21.8701
G1 X-16.6 Y9.883 E21.91113
G1 X-16.6 Y-9.883 E22.89726
G1 X-16.56 Y-10.608 E22.93349
G1 X-16.441 Y-11.325 E22.96975
G1 X-16.243 Y-12.024 E23.006
G1 X-15.97 Y-12.697 E23.04223
G1 X-15.625 Y-13.336 E23.07846
G1 X-15.211 Y-13.933 E23.1147
G1 X-14.667 Y-14.55 E23.15574
G1 X-14.55 Y-14.667 E23.164
G1 X-14.009 Y-15.151 E23.20021
G1 X-13.418 Y-15.574 E23.23647
G1 X-12.784 Y-15.928 E23.2727
G1 X-12.115 Y-16.211 E23.30894
G1 X-11.419 Y-16.419 E23.34518
G1 X-10.704 Y-16.549 E23.38144
G1 X-9.883 Y-16.6 E23.42247
G1 X9.883 Y-16.6 E24.4086
G1 X10.608 Y-16.56 E24.44483
G1 X11.325 Y-16.441 E24.48109
G1 X12.024 Y-16.243 E24.51734
G1 X12.697 Y-15.97 E24.55357
G1 X13.336 Y-15.625 E24.5898
G1 X13.933 Y-15.211 E24.62604
G1 X14.55 Y-14.667 E24.66708
G1 X14.667 Y-14.55 E24.67534
G1 X15.151 Y-14.009 E24.71155
G1 X15.574 Y-13.418 E24.74781
G1 X15.928 Y-12.784 E24.78404
G1 X16.211 Y-12.115 E24.82028
G1 X16.419 Y-11.419 E24.85652
G1 X16.549 Y-10.704 E24.89278
G1 X16.6 Y-9.883 E24.93382
G0 F3600 X16.2 Y-9.883
G1 F1800 X16.2 Y9.883 E25.91994
G1 X16.16 Y10.586 E25.95507
G1 X16.041 Y11.28 E25.9902
G1 X15.843 Y11.955 E26.0253
G1 X15.571 Y12.604 E26.06041
G1 X15.226 Y13.218 E26.09554
G1 X14.815 Y13.789 E26.13064
G1 X14.384 Y14.267 E26.16275
G1 X14.267 Y14.384 E26.17101
G1 X13.742 Y14.853 E26.20613
G1 X13.167 Y15.259 E26.24125
G1 X12.549 Y15.597 E26.27639
G1 X11.898 Y15.864 E26.31149
G1 X11.22 Y16.054 E26.34662
G1 X10.525 Y16.167 E26.38175
G1 X9.883 Y16.2 E26.41382
G1 X-9.883 Y16.2 E27.39995
G1 X-10.586 Y16.16 E27.43508
G1 X-11.28 Y16.041 E27.47021
G1 X-11.955 Y15.843 E27.50531
G1 X-12.604 Y15.571 E27.54041
G1 X-13.218 Y15.226 E27.57555
G1 X-13.789 Y14.815 E27.61065
G1 X-14.267 Y14.384 E27.64276
G1 X-14.384 Y14.267 E27.65101
G1 X-14.853 Y13.742 E27.68614
G1 X-15.259 Y13.167 E27.72125
G1 X-15.597 Y12.549 E27.7564
G1 X-15.864 Y11.898 E27.7915
G1 X-16.054 Y11.22 E27.82663
G1 X-16.167 Y10.525 E27.86176
G1 X-16.2 Y9.883 E27.89383
G1 X-16.2 Y-9.883 E28.87996
G1 X-16.16 Y-10.586 E28.91509
G1 X-16.041 Y-11.28 E28.95022
G1 X-15.843 Y-11.955 E28.98531
G1 X-15.571 Y-12.604 E29.02042
G1 X-15.226 Y-13.218 E29.05556
G1 X-14.815 Y-13.789 E29.09066
G1 X-14.384 Y-14.267 E29.12277
G1 X-14.267 Y-14.384 E29.13102
G1 X-13.742 Y-14.853 E29.16614
G1 X-13.167 Y-15.259 E29.20126
G1 X-12.549 Y-15.597 E29.2364
G1 X-11.898 Y-15.864 E29.27151
G1 X-11.22 Y-16.054 E29.30664
G1 X-10.525 Y-16.167 E29.34176
G1 X-9.883 Y-16.2 E29.37384
G1 X9.883 Y-16.2 E30.35997
G1 X10.586 Y-16.16 E30.3951
G1 X11.28 Y-16.041 E30.43022
G1 X11.955 Y-15.843 E30.46532
G1 X12.604 Y-15.571 E30.50043
G1 X13.218 Y-15.226 E30.53556
G1 X13.789 Y-14.815 E30.57066
G1 X14.267 Y-14.384 E30.60277
G1 X14.384 Y-14.267 E30.61103
G1 X14.853 Y-13.742 E30.64615
G1 X15.259 Y-13.167 E30.68127
G1 X15.597 Y-12.549 E30.71641
G1 X15.864 Y-11.898 E30.75151
G1 X16.054 Y-11.22 E30.78664
G1 X16.167 Y-10.525 E30.82177
G1 X16.2 Y-9.883 E30.85384
G0 F3600 X15.8 Y-9.883
G1 F1800 X15.8 Y9.883 E31.83997
G1 X15.76 Y10.563 E31.87396
G1 X15.641 Y11.233 E31.90791
G1 X15.444 Y11.885 E31.94189
G1 X15.172 Y12.509 E31.97585
G1 X14.828 Y13.097 E32.00984
G1 X14.418 Y13.641 E32.04382
G1 X14.101 Y13.984 E32.06712
G1 X13.984 Y14.101 E32.07538
G1 X13.475 Y14.554 E32.10937
G1 X12.917 Y14.943 E32.14331
G1 X12.317 Y15.265 E32.17728
G1 X11.683 Y15.514 E32.21126
G1 X11.024 Y15.687 E32.24525
G1 X10.35 Y15.781 E32.27921
G1 X9.883 Y15.8 E32.30252
G1 X-9.883 Y15.8 E33.28865
G1 X-10.563 Y15.76 E33.32264
G1 X-11.233 Y15.641 E33.35659
G1 X-11.885 Y15.444 E33.39057
G1 X-12.509 Y15.172 E33.42453
G1 X-13.097 Y14.828 E33.45851
G1 X-13.641 Y14.418 E33.4925
G1 X-13.984 Y14.101 E33.5158
G1 X-14.101 Y13.984 E33.52406
G1 X-14.554 Y13.475 E33.55805
G1 X-14.943 Y12.917 E33.59199
G1 X-15.265 Y12.317 E33.62596
G1 X-15.514 Y11.683 E33.65994
G1 X-15.687 Y11.024 E33.69393
G1 X-15.781 Y10.35 E33.72788
G1 X-15.8 Y9.883 E33.7512
G1 X-15.8 Y-9.883 E34.73733
G1 X-15.76 Y-10.563 E34.77132
G1 X-15.641 Y-11.233 E34.80527
G1 X-15.444 Y-11.885 E34.83925
G1 X-15.172 Y-12.509 E34.87321
G1 X-14.828 Y-13.097 E34.90719
G1 X-14.418 Y-13.641 E34.94118
G1 X-14.101 Y-13.984 E34.96448
G1 X-13.984 Y-14.101 E34.97274
G1 X-13.475 Y-14.554 E35.00673
G1 X-12.917 Y-14.943 E35.04067
G1 X-12.317 Y-15.265 E35.07464
G1 X-11.683 Y-15.514 E35.10862
G1 X-11.024 Y-15.687 E35.14261
G1 X-10.35 Y-15.781 E35.17656
G1 X-9.883 Y-15.8 E35.19988
G1 X9.883 Y-15.8 E36.18601
G1 X10.563 Y-15.76 E36.22
G1 X11.233 Y-15.641 E36.25395
G1 X11.885 Y-15.444 E36.28793
G1 X12.509 Y-15.172 E36.32189
G1 X13.097 Y-14.828 E36.35587
G1 X13.641 Y-14.418 E36.38986
G1 X13.984 Y-14.101 E36.41316
G1 X14.101 Y-13.984 E36.42142
G1 X14.554 Y-13.475 E36.45541
G1 X14.943 Y-12.917 E36.48935
G1 X15.265 Y-12.317 E36.52332
G1 X15.514 Y-11.683 E36.5573
G1 X15.687 Y-11.024 E36.59129
G1 X15.781 Y-10.35 E36.62524
G1 X15.8 Y-9.883 E36.64856
G0 F3600 X15.4 Y-9.883
G1 F1800 X15.4 Y9.883 E37.63469
G1 X15.36 Y10.539 E37.66748
G1 X15.241 Y11.185 E37.70025
G1 X15.044 Y11.812 E37.73304
G1 X14.772 Y12.41 E37.76582
G1 X14.43 Y12.971 E37.79859
G1 X13.818 Y13.701 E37.84612
G1 X13.701 Y13.818 E37.85438
G1 X13.209 Y14.254 E37.88717
G1 X12.668 Y14.626 E37.91993
G1 X12.086 Y14.93 E37.95269
G1 X11.471 Y15.161 E37.98546
G1 X10.832 Y15.316 E38.01827
G1 X9.883 Y15.4 E38.0658
G1 X-9.883 Y15.4 E39.05193
G1 X-10.539 Y15.36 E39.08472
G1 X-11.185 Y15.241 E39.11749
G1 X-11.812 Y15.044 E39.15028
G1 X-12.41 Y14.772 E39.18305
G1 X-12.971 Y14.43 E39.21583
G1 X-13.701 Y13.818 E39.26336
G1 X-13.818 Y13.701 E39.27161
G1 X-14.254 Y13.209 E39.30441
G1 X-14.626 Y12.668 E39.33716
G1 X-14.93 Y12.086 E39.36992
G1 X-15.161 Y11.471 E39.4027
G1 X-15.316 Y10.832 E39.4355
G1 X-15.4 Y9.883 E39.48303
G1 X-15.4 Y-9.883 E40.46916
G1 X-15.36 Y-10.539 E40.50195
G1 X-15.241 Y-11.185 E40.53472
G1 X-15.044 Y-11.812 E40.56751
G1 X-14.772 Y-12.41 E40.60029
G1 X-14.43 Y-12.971 E40.63307
G1 X-13.818 Y-13.701 E40.68059
G1 X-13.701 Y-13.818 E40.68885
G1 X-13.209 Y-14.254 E40.72164
G1 X-12.668 Y-14.626 E40.7544
G1 X-12.086 Y-14.93 E40.78716
G1 X-11.471 Y-15.161 E40.81993
G1 X-10.832 Y-15.316 E40.85274
G1 X-9.883 Y-15.4 E40.90027
G1 X9.883 Y-15.4 E41.8864
G1 X10.539 Y-15.36 E41.91919
G1 X11.185 Y-15.241 E41.95196
G1 X11.812 Y-15.044 E41.98475
G1 X12.41 Y-14.772 E42.01752
G1 X12.971 Y-14.43 E42.0503
G1 X13.701 Y-13.818 E42.09783
G1 X13.818 Y-13.701 E42.10608
G1 X14.254 Y-13.209 E42.13888
G1 X14.626 Y-12.668 E42.17164
G1 X14.93 Y-12.086 E42.20439
G1 X15.161 Y-11.471 E42.23717
G1 X15.316 Y-10.832 E42.26997
G1 X15.4 Y-9.883 E42.31751
G0 F3600 X15 Y-9.883
G1 F1800 X15 Y9.883 E43.30363
G1 X14.96 Y10.514 E43.33518
G1 X14.841 Y11.135 E43.36672
G1 X14.644 Y11.735 E43.39823
G1 X14.373 Y12.307 E43.42981
G1 X14.033 Y12.839 E43.46131
G1 X13.536 Y13.419 E43.49941
G1 X13.419 Y13.536 E43.50767
G1 X12.944 Y13.953 E43.5392
G1 X12.421 Y14.308 E43.57074
G1 X11.857 Y14.594 E43.60229
G1 X11.262 Y14.806 E43.6338
G1 X10.644 Y14.942 E43.66537
G1 X9.883 Y15 E43.70345
G1 X-9.883 Y15 E44.68958
G1 X-10.514 Y14.96 E44.72112
G1 X-11.135 Y14.841 E44.75267
G1 X-11.735 Y14.644 E44.78417
G1 X-12.307 Y14.373 E44.81575
G1 X-12.839 Y14.033 E44.84725
G1 X-13.419 Y13.536 E44.88536
G1 X-13.536 Y13.419 E44.89361
G1 X-13.953 Y12.944 E44.92515
G1 X-14.308 Y12.421 E44.95668
G1 X-14.594 Y11.857 E44.98823
G1 X-14.806 Y11.262 E45.01974
G1 X-14.942 Y10.644 E45.05131
G1 X-15 Y9.883 E45.08939
G1 X-15 Y-9.883 E46.07552
G1 X-14.96 Y-10.514 E46.10706
G1 X-14.841 Y-11.135 E46.13861
G1 X-14.644 Y-11.735 E46.17012
G1 X-14.373 Y-12.307 E46.20169
G1 X-14.033 Y-12.839 E46.23319
G1 X-13.536 Y-13.419 E46.2713
G1 X-13.419 Y-13.536 E46.27955
G1 X-12.944 Y-13.953 E46.31109
G1 X-12.421 Y-14.308 E46.34262
G1 X-11.857 Y-14.594 E46.37417
G1 X-11.262 Y-14.806 E46.40569
G1 X-10.644 Y-14.942 E46.43726
G1 X-9.883 Y-15 E46.47533
G1 X9.883 Y-15 E47.46146
G1 X10.514 Y-14.96 E47.49301
G1 X11.135 Y-14.841 E47.52455
G1 X11.735 Y-14.644 E47.55606
G1 X12.307 Y-14.373 E47.58764
G1 X12.839 Y-14.033 E47.61913
G1 X13.419 Y-13.536 E47.65724
G1 X13.536 Y-13.419 E47.6655
G1 X13.953 Y-12.944 E47.69703
G1 X14.308 Y-12.421 E47.72857
G1 X14.594 Y-11.857 E47.76012
G1 X14.806 Y-11.262 E47.79163
G1 X14.942 Y-10.644 E47.8232
G1 X15 Y-9.883 E47.86127
G0 F3600 X14.6 Y-9.883
G1 F1800 X14.6 Y9.883 E48.8474
